;FLAVOR:Marlin
;TIME:3224
;Filament used: 1.32926m
;Layer height: 0.2
;MINX:34.428
;MINY:69.491
;MINZ:0.2
;MAXX:185.563
;MAXY:144.553
;MAXZ:1
;Generated with Cura_SteamEngine 4.8.0
M82 ;absolute extrusion mode
M851 X6.0 Y1.0; // Define the offset
// M500;        // Store the settings

G28 ;Home
M140 S70 ;set bed temperature
M190 S70 ;wait for bed temperature

M104 S210 ;set hotend temperature
G29 ; Auto bed-level
G92 E0 ; Reset Extruder

G1 Z15.0 F3000 ;Move Z Axis up
M109 S210 ;wait for hotend temperature

G1 X20.1 Y200.0 Z0.3 F1500.0 E15 ; draw 1st line
G1 X20.4 Y200.0 Z0.3 F5000.0 ; move to side a little
G1 X20.4 Y20 Z0.3 F1500.0 E30 ; draw 2nd line
G92 E0 ; reset extruder
G1 Z1.0 F3000 ; move z up little to prevent scratching of surface

M117 Print Engaged;
G92 E0
G92 E0
G1 F2400 E-5
;LAYER_COUNT:4
;LAYER:0
M117 INDICATOR-Layer0
M107
G1 F300 Z0.4
;MESH:lissajous_bookmark_4.stl
G0 F6000 X180.258 Y70.327 Z0.4
;TYPE:WALL-INNER
G1 F300 Z0.2
G1 F2400 E0
G1 F1200 X180.282 Y70.323 E0.00083
G1 X180.793 Y70.232 E0.01844
G1 X180.987 Y70.214 E0.02505
G1 X181.004 Y70.212 E0.02563
G1 X181.863 Y70.195 E0.05478
G1 X181.946 Y70.194 E0.05759
G1 X182.183 Y70.241 E0.06579
G1 X182.592 Y70.323 E0.07994
G1 X182.129 Y70.512 E0.08717
G1 X182.099 Y70.525 E0.08735
G1 X182.024 Y70.559 E0.09003
G1 X181.176 Y70.95 E0.12171
G1 X181.148 Y70.963 E0.12276
G1 X181.197 Y70.997 E0.12351
G1 X181.175 Y71.009
G1 X181.019 Y71.098 E0.129
G1 X181.014 Y71.008
G1 X181.012 Y70.972
G1 X180.991 Y70.645 E0.13791
G1 X180.85 Y70.583 E0.14313
G1 X180.673 Y70.505 E0.14889
G1 X180.284 Y70.333 E0.15391
G1 X180.258 Y70.327 E0.15395
G0 F6000 X179.037 Y70.316
G1 F1200 X178.952 Y70.341 E0.15696
G1 X178.041 Y70.61 E0.18919
G1 X178.041 Y70.615 E0.18935
G1 X178.007 Y70.9 E0.19909
G1 X177.976 Y71.16 E0.20798
G1 X177.734 Y71.061 E0.21331
G1 X177.292 Y70.879 E0.22953
G1 X176.787 Y71.072 E0.24787
G1 X176.533 Y71.169 E0.2571
G1 X176.518 Y70.898 E0.26259
G1 X176.517 Y70.897 E0.26263
G1 X176.5 Y70.61 E0.27239
G1 X176.499 Y70.592 E0.273
G1 X175.777 Y70.401 E0.29834
G1 X175.474 Y70.32 E0.30898
G1 X175.812 Y70.268 E0.31155
G1 X176.479 Y70.232 E0.32526
G1 X176.497 Y70.231 E0.32585
G1 X177.465 Y70.178 E0.35875
G1 X178.066 Y70.225 E0.3792
G1 X178.071 Y70.225 E0.37937
G1 X178.937 Y70.293 E0.39507
G1 X179.037 Y70.316 E0.39559
G0 F6000 X178.285 Y70.817
G0 X178.178 Y71.157
G0 X178.376 Y71.18
;TYPE:WALL-OUTER
G1 F1200 X179.494 Y71.837 E0.43959
G1 X180.622 Y71.155 E0.48431
G1 X180.607 Y70.913 E0.49254
G1 X180.156 Y70.714 E0.50927
G1 X179.599 Y70.581 E0.52869
G1 X179.388 Y70.63 E0.53604
G1 X178.407 Y70.919 E0.57074
G1 X178.376 Y71.18 E0.57966
G1 F2400 E-4.42034
G0 F6000 X178.178 Y71.157
G0 X179.495 Y71.993
G0 X179.903 Y71.998
G0 X180.005 Y72.169
G1 F2400 E0.57966
G1 F1200 X180.966 Y72.938 E0.62142
G1 X181.361 Y73.298 E0.63955
G1 X182.256 Y72.393 E0.68274
G1 X182.477 Y72.158 E0.69368
G1 X182.186 Y71.885 E0.70722
G1 X181.409 Y71.337 E0.73948
G1 X180.985 Y71.576 E0.75599
G1 X180.005 Y72.169 E0.79486
G0 F6000 X179.903 Y71.998
G0 X182.233 Y70.751
G0 X183.332 Y70.352
;TYPE:WALL-INNER
G1 F1200 X183.415 Y70.326 E0.79781
G1 X183.505 Y70.306 E0.80094
G1 X183.726 Y70.257 E0.80862
G1 X184.02 Y70.19 E0.81885
G1 X184.303 Y70.216 E0.82849
G1 X184.488 Y70.353 E0.8363
G1 X184.689 Y70.648 E0.84841
G1 X184.795 Y70.941 E0.85898
G1 X184.787 Y71.291 E0.87086
G1 X184.784 Y71.431 E0.87561
G1 X184.669 Y71.912 E0.89239
G1 X184.496 Y71.584 E0.89682
G1 X184.431 Y71.461 E0.90112
G1 X184.109 Y70.853 E0.92446
G1 X184.088 Y70.813 E0.92599
G1 X184.006 Y70.907 E0.92808
G1 X183.702 Y70.614 E0.94241
G1 X183.539 Y70.457 E0.94801
G1 X183.388 Y70.381 E0.95068
G1 X183.332 Y70.352
G1 F2400 E-4.04932
G0 F6000 X182.233 Y70.751
G0 X181.706 Y71.015
G0 X181.944 Y71.037
;TYPE:WALL-OUTER
G1 F2400 E0.95068
G1 F1200 X182.529 Y71.452 E0.97502
G1 X182.842 Y71.784 E0.9905
G1 X183.558 Y71.031 E1.02575
G1 X183.305 Y70.787 E1.03768
G1 X182.951 Y70.608 E1.05114
G1 X182.288 Y70.879 E1.07544
G1 X181.944 Y71.037 E1.08828
G0 F6000 X181.829 Y71.199
G0 X182.842 Y71.969
G0 X184.03 Y71.301
G0 X184.455 Y72.082
G0 X184.669 Y72.707
;TYPE:WALL-INNER
G1 F1200 X184.765 Y73.104 E1.10214
G1 X184.777 Y73.406 E1.1124
G1 X184.806 Y74.118 E1.13657
G1 X184.775 Y74.4 E1.1462
G1 X184.699 Y75.067 E1.16898
G1 X184.692 Y75.121 E1.17082
G1 X184.68 Y75.065 E1.17094
G1 X184.389 Y74.357 E1.18534
G1 X183.935 Y74.322 E1.20079
G1 X184.186 Y73.816 E1.21995
G1 X184.067 Y73.626 E1.22756
G1 X183.963 Y73.46 E1.23421
G1 X184.152 Y73.444 E1.23644
G1 X184.392 Y73.422 E1.24283
G1 X184.547 Y73.02 E1.2547
G1 X184.669 Y72.707 E1.25754
G0 F6000 X184.606 Y72.458
G0 X184.182 Y71.423
G0 X184.006 Y71.515
;TYPE:WALL-OUTER
G1 F1200 X183.327 Y72.293 E1.29258
G1 X183.698 Y72.802 E1.31395
G1 X183.862 Y73.068 E1.32455
G1 X184.109 Y73.046 E1.33297
G1 X184.407 Y72.274 E1.36104
G1 X184.006 Y71.515 E1.39017
G1 F2400 E-3.60983
G0 F6000 X184.182 Y71.423
G0 X183.16 Y72.286
G0 X183.881 Y73.832
G0 X183.225 Y75.038
G0 X182.931 Y75.442
G0 X182.928 Y75.228
G1 F2400 E1.39017
G1 F1200 X183.108 Y74.963 E1.40104
G1 X183.486 Y74.327 E1.42614
G1 X183.728 Y73.839 E1.44462
G1 X182.988 Y72.658 E1.49191
G1 X182.621 Y73.063 E1.51045
G1 X181.871 Y73.859 E1.54756
G1 X182.176 Y74.182 E1.56263
G1 X182.518 Y74.653 E1.58238
G1 X182.928 Y75.228 E1.60634
G0 F6000 X182.766 Y75.343
G0 X183.932 Y77.16
;TYPE:WALL-INNER
G1 F1200 X183.959 Y77.158 E1.60726
G1 X184.172 Y77.136 E1.61452
G1 X184.41 Y77.11 E1.62265
G1 X184.453 Y77.106 E1.62411
G1 X184.671 Y76.34 E1.65113
G1 X184.69 Y76.261 E1.65389
G1 X184.706 Y76.332 E1.6539
G1 X184.71 Y76.349
G1 X184.766 Y77.081 E1.66456
G1 X184.769 Y77.124 E1.66591
G1 X184.812 Y77.66 E1.68415
G1 X184.77 Y78.431 E1.71035
G1 X184.768 Y78.485 E1.71218
G1 X184.739 Y79.026 E1.73057
G1 X184.684 Y79.326 E1.74091
G1 X184.618 Y79.056 E1.74215
G1 X184.474 Y78.47 E1.75347
G1 X184.42 Y78.465 E1.75514
G1 X184.071 Y78.428 E1.76704
G1 X184.024 Y78.424 E1.76864
G1 X183.906 Y78.411 E1.77267
G1 X184.057 Y78.098 E1.78043
G1 X184.075 Y78.054 E1.78193
G1 X184.181 Y77.794 E1.79145
G1 X184.042 Y77.426 E1.8048
G1 X183.967 Y77.226 E1.80966
G1 X183.932 Y77.16 E1.8108
G0 F6000 X183.874 Y76.764
;TYPE:WALL-OUTER
G1 F1200 X184.142 Y76.736 E1.81995
G1 X184.284 Y76.238 E1.83752
G1 X184.413 Y75.708 E1.85602
G1 X184.297 Y75.185 E1.8742
G1 X184.113 Y74.737 E1.89063
G1 X183.866 Y74.718 E1.89904
G1 X183.275 Y75.712 E1.93827
G1 X183.425 Y75.922 E1.94703
G1 X183.874 Y76.764 E1.9794
G0 F6000 X183.894 Y76.962
G0 X184.566 Y79.943
G0 X184.356 Y81.668
;TYPE:WALL-INNER
G1 F1200 X184.424 Y81.446 E1.98728
G1 X184.685 Y80.606 E2.01713
G1 X184.798 Y81.561 E2.03416
G1 X184.796 Y81.763 E2.04101
G1 X184.757 Y81.755
G1 X184.356 Y81.668 E2.05494
G0 F6000 X182.528 Y84.663
G0 X181.496 Y85.935
G0 X180.28 Y87.077
G0 X179.147 Y87.877
G0 X176.461 Y89.446
G1 F1200 X176.472 Y89.506 E2.05701
G1 X176.547 Y89.91 E2.07095
G1 X176.057 Y89.865 E2.08764
G1 X175.144 Y89.779 E2.11876
G1 X176.083 Y89.579 E2.13118
G1 X176.461 Y89.446 E2.14122
G0 F6000 X176.925 Y89.758
;TYPE:WALL-OUTER
G1 F1200 X178.285 Y89.723 E2.18738
G1 X179.69 Y89.476 E2.23578
G1 X180.567 Y89.163 E2.26737
G1 X181.724 Y88.478 E2.31299
G1 X182.695 Y87.606 E2.35727
G1 X183.48 Y86.565 E2.40151
G1 X184.07 Y85.377 E2.44651
G1 X184.471 Y84.074 E2.49277
G1 X184.678 Y82.68 E2.54058
G1 X184.681 Y82.148 E2.55863
G1 X184.364 Y82.079 E2.56964
G1 X183.869 Y83.179 E2.61057
G1 X183.739 Y83.43 E2.62016
G1 X182.99 Y84.651 E2.66876
G1 X182.655 Y85.109 E2.68801
G1 X181.662 Y86.334 E2.74151
G1 X180.492 Y87.431 E2.79593
G1 X179.163 Y88.37 E2.85114
G1 X177.823 Y89.057 E2.90223
G1 X177.47 Y89.209 E2.91527
G1 X176.863 Y89.422 E2.9371
G1 X176.925 Y89.758 E2.94869
G0 F6000 X176.929 Y89.958
G0 X174.414 Y89.666
G0 X172.778 Y89.346
G0 X172.315 Y89.174
;TYPE:WALL-INNER
G1 F1200 X172.343 Y89.535 E2.96097
G1 X173.593 Y89.775 E3.00416
G1 X172.377 Y89.888 E3.02229
G1 X172.117 Y89.913 E3.03115
G1 X170.195 Y89.888 E3.09636
G1 X169.99 Y89.885 E3.10332
G1 X169.29 Y89.814 E3.12719
G1 X168.916 Y89.776 E3.13995
G1 X169.299 Y89.723 E3.14167
G1 X169.915 Y89.575 E3.15226
G1 X170.2 Y89.506 E3.16117
G1 X170.221 Y89.055 E3.17649
G1 X170.223 Y88.997 E3.17846
G1 X170.228 Y88.909 E3.18145
G1 X170.529 Y89.011 E3.18855
G1 X170.584 Y89.026 E3.19031
G1 X171.367 Y89.24 E3.21785
G1 X172.052 Y89.001 E3.24247
G1 X172.296 Y88.916 E3.25123
G1 X172.315 Y89.174 E3.25652
G0 F6000 X172.719 Y89.2
;TYPE:WALL-OUTER
G1 F1200 X174.413 Y89.525 E3.31505
G1 X175.975 Y89.193 E3.36923
G1 X177.252 Y88.744 E3.41515
G1 X178.809 Y87.945 E3.47453
G1 X180.192 Y86.969 E3.53196
G1 X181.394 Y85.84 E3.58791
G1 X182.414 Y84.582 E3.64286
G1 X183.251 Y83.223 E3.69702
G1 X183.899 Y81.789 E3.75041
G1 X184.348 Y80.342 E3.80181
G1 X184.357 Y80.324 E3.80249
G1 X184.425 Y79.947 E3.81549
G1 X184.153 Y78.839 E3.8542
G1 X183.873 Y78.81 E3.86375
G1 X183.548 Y79.488 E3.88926
G1 X182.673 Y80.936 E3.94666
G1 X182.213 Y81.565 E3.9731
G1 X181.275 Y82.838 E4.02675
G1 X180.05 Y84.208 E4.08911
G1 X178.64 Y85.508 E4.15417
G1 X177.063 Y86.696 E4.22116
G1 X175.329 Y87.744 E4.28991
G1 X173.425 Y88.639 E4.36129
G1 X172.696 Y88.894 E4.38749
G1 X172.719 Y89.2 E4.3979
G0 F6000 X172.682 Y89.396
G0 X172.129 Y89.171
G0 X170.896 Y88.84
G0 X168.27 Y87.939
;TYPE:WALL-INNER
G1 F1200 X168.472 Y87.85 E4.40539
G1 X168.546 Y87.817 E4.40814
G1 X168.55 Y87.927 E4.40927
G1 X168.555 Y88.035 E4.41133
G1 X168.481 Y88.011 E4.41169
G1 X168.27 Y87.939 E4.41364
G0 F6000 X167.465 Y87.935
G1 F1200 X167.224 Y88.018 E4.42229
G1 X167.148 Y88.045 E4.42503
G1 X167.149 Y87.93 E4.42626
G1 X167.152 Y87.813 E4.42861
G1 X167.227 Y87.842 E4.42898
G1 X167.465 Y87.935 E4.4313
G0 F6000 X165.804 Y88.798
G0 X165.842 Y89.305
G0 X166.967 Y89.785
G1 F1200 X166.765 Y89.812 E4.43822
G1 X165.605 Y89.865 E4.47761
G1 X165.572 Y89.866 E4.47873
G1 X164.279 Y89.926 E4.52265
G1 X162.7 Y89.868 E4.57626
G1 X162.669 Y89.867 E4.57731
G1 X161.673 Y89.829 E4.61113
G1 X161.242 Y89.781 E4.62584
G1 X161.652 Y89.71 E4.62784
G1 X162.681 Y89.532 E4.64847
G1 X162.682 Y89.501 E4.64946
G1 X162.707 Y89.102 E4.66303
G1 X162.721 Y88.864 E4.67112
G1 X162.953 Y88.921 E4.67611
G1 X164.169 Y89.223 E4.71862
G1 X165.309 Y88.928 E4.75857
G1 X165.539 Y88.869 E4.76663
G1 X165.557 Y89.106 E4.77159
G1 X165.587 Y89.5 E4.785
G1 X165.589 Y89.533 E4.78605
G1 X166.776 Y89.75 E4.80678
G1 X166.967 Y89.785 E4.80722
G0 F6000 X165.929 Y89.39
G0 X165.965 Y89.195
;TYPE:WALL-OUTER
G1 F1200 X167.601 Y89.494 E4.86364
G1 X167.927 Y89.508 E4.87472
G1 X169.225 Y89.329 E4.91917
G1 X169.814 Y89.187 E4.93973
G1 X169.828 Y88.887 E4.94992
G1 X167.857 Y88.222 E5.02049
G1 X165.942 Y88.888 E5.08929
G1 X165.965 Y89.195 E5.09973
G1 F2400 E0.09973
G0 F6000 X165.929 Y89.39
G0 X165.804 Y88.798
G0 X167.857 Y88.076
G0 X168.892 Y88.244
G0 X168.957 Y88.056
G1 F2400 E5.09973
G1 F1200 X170.646 Y88.628 E5.16023
G1 X171.353 Y88.821 E5.1851
G1 X173.017 Y88.241 E5.24489
G1 X174.956 Y87.328 E5.3176
G1 X176.73 Y86.255 E5.38795
G1 X178.336 Y85.046 E5.45615
G1 X179.77 Y83.726 E5.52228
G1 X181.025 Y82.322 E5.58617
G1 X182.099 Y80.864 E5.64761
G1 X182.993 Y79.384 E5.70628
G1 X183.691 Y77.935 E5.76084
G1 X183.751 Y77.788 E5.76623
G1 X183.602 Y77.391 E5.78062
G1 X182.952 Y76.178 E5.82731
G1 X182.336 Y77.069 E5.86406
G1 X181.992 Y77.541 E5.88388
G1 X180.873 Y78.964 E5.9453
G1 X179.588 Y80.407 E6.01086
G1 X178.113 Y81.863 E6.08118
G1 X176.481 Y83.281 E6.15453
G1 X174.675 Y84.64 E6.23121
G1 X172.718 Y85.901 E6.3102
G1 X170.599 Y87.05 E6.39199
G1 X168.945 Y87.782 E6.45336
G1 X168.957 Y88.056 E6.46266
G0 F6000 X168.892 Y88.244
G0 X164.668 Y86.508
;TYPE:WALL-INNER
G1 F1200 X164.337 Y86.367 E6.47487
G1 X164.093 Y86.263 E6.48387
G1 X163.727 Y86.418 E6.49735
G1 X163.157 Y86.661 E6.51838
G1 X162.314 Y87.019 E6.54945
G1 X162.101 Y87.093 E6.5571
G1 X162.307 Y87.005 E6.55723
G1 X163.148 Y86.642 E6.55861
G1 X163.152 Y86.155 E6.57514
G1 X163.718 Y86.399 E6.59605
G1 X164.084 Y86.243 E6.59676
G1 X164.457 Y86.084 E6.60432
G1 X164.63 Y85.997 E6.61089
G1 X166.985 Y84.813 E6.70033
G1 X167.28 Y84.644 E6.71186
G1 X169.367 Y83.448 E6.79347
G1 X169.58 Y83.311 E6.80207
G1 X171.595 Y82.013 E6.88339
G1 X171.724 Y81.922 E6.88875
G1 X173.667 Y80.543 E6.96958
G1 X173.744 Y80.483 E6.9729
G1 X175.576 Y79.067 E7.05146
G1 X177.297 Y77.635 E7.12742
G1 X177.319 Y77.617 E7.12838
G1 X178.816 Y76.29 E7.19626
G1 X178.891 Y76.223 E7.19967
G1 X180.158 Y75.032 E7.25867
G1 X178.907 Y76.239 E7.26028
G1 X178.834 Y76.309 E7.2605
G1 X177.352 Y77.652 E7.26678
G1 X177.329 Y77.673 E7.26695
G1 X175.626 Y79.117 E7.27815
G1 X173.796 Y80.549 E7.29358
G1 X173.714 Y80.608 E7.29434
G1 X171.778 Y81.997 E7.31175
G1 X171.642 Y82.085 E7.31301
G1 X169.628 Y83.385 E7.33065
G1 X169.405 Y83.513 E7.33249
G1 X167.318 Y84.709 E7.34783
G1 X167.011 Y84.863 E7.34979
G1 X164.653 Y86.042 E7.36168
G1 X164.654 Y86.077
G1 X164.668 Y86.508 E7.37631
G0 F6000 X165.069 Y86.54
;TYPE:WALL-OUTER
G1 F1200 X165.92 Y86.906 E7.40774
G1 X167.888 Y87.67 E7.47937
G1 X170.216 Y86.642 E7.56571
G1 X172.36 Y85.477 E7.6485
G1 X174.347 Y84.196 E7.72871
G1 X176.173 Y82.823 E7.80623
G1 X177.829 Y81.386 E7.88062
G1 X179.314 Y79.917 E7.95149
G1 X180.624 Y78.448 E8.01827
G1 X181.756 Y77.009 E8.08039
G1 X182.651 Y75.713 E8.13383
G1 X181.931 Y74.704 E8.17588
G1 X181.498 Y74.246 E8.19727
G1 X180.472 Y75.285 E8.24681
G1 X179.112 Y76.597 E8.31093
G1 X177.588 Y77.978 E8.3807
G1 X175.885 Y79.422 E8.45646
G1 X174.029 Y80.874 E8.53641
G1 X172.002 Y82.329 E8.62107
G1 X169.836 Y83.727 E8.70854
G1 X167.503 Y85.064 E8.79977
G1 X165.061 Y86.285 E8.8924
G1 X165.069 Y86.54 E8.90106
G0 F6000 X164.99 Y86.723
G0 X164.093 Y86.549
G0 X161.246 Y87.676
G0 X160.985 Y88.055
;TYPE:WALL-INNER
G1 F1200 X160.162 Y87.806 E8.93023
G1 X160.974 Y87.517 E8.95947
G1 X160.985 Y88.055 E8.97773
G0 F6000 X161.385 Y88.059
;TYPE:WALL-OUTER
G1 F1200 X162.482 Y88.393 E9.01664
G1 X164.167 Y88.81 E9.07553
G1 X165.892 Y88.365 E9.13598
G1 X166.747 Y88.066 E9.16671
G1 X166.752 Y87.787 E9.17618
G1 X165.517 Y87.305 E9.22116
G1 X164.093 Y86.698 E9.27368
G1 X162.446 Y87.397 E9.33438
G1 X161.379 Y87.769 E9.37272
G1 X161.385 Y88.059 E9.38256
G0 F6000 X161.326 Y88.249
G0 X160.245 Y88.086
G0 X158.817 Y88.182
;TYPE:WALL-INNER
G1 F1200 X158.833 Y87.671 E9.39991
G1 X159.597 Y87.936 E9.42734
G1 X159.641 Y87.952 E9.42893
G1 X159.586 Y87.971 E9.4293
G1 X158.817 Y88.182 E9.45635
G0 F6000 X157.404 Y88.643
G1 F1200 X157.414 Y88.892 E9.46481
G1 X157.415 Y88.893 E9.46486
G1 X157.445 Y89.505 E9.48565
G1 X157.446 Y89.529 E9.48646
G1 X157.898 Y89.609 E9.50203
G1 X158.755 Y89.761 E9.53157
G1 X158.906 Y89.778 E9.53672
G1 X158.758 Y89.791 E9.53686
G1 X157.852 Y89.874 E9.54896
G1 X157.452 Y89.88 E9.55928
G1 X157.428 Y89.88 E9.56006
G1 X154.937 Y89.918 E9.64459
G1 X153.714 Y89.85 E9.68615
G1 X153.702 Y89.85 E9.68655
G1 X151.924 Y89.751 E9.74697
G1 X151.819 Y89.738 E9.75056
G1 X151.92 Y89.725 E9.75061
G1 X153.722 Y89.478 E9.78184
G1 X153.722 Y89.465 E9.78228
G1 X153.75 Y88.995 E9.79825
G1 X153.763 Y88.759 E9.80627
G1 X153.993 Y88.813 E9.81121
G1 X155.341 Y89.13 E9.8582
G1 X156.623 Y88.863 E9.90263
G1 X157.164 Y88.71 E9.9217
G1 X157.404 Y88.643 E9.92685
G0 F6000 X157.831 Y89.191
;TYPE:WALL-OUTER
G1 F1200 X158.812 Y89.365 E9.96065
G1 X160.158 Y89.516 E10.00661
G1 X160.729 Y89.464 E10.02606
G1 X162.301 Y89.192 E10.08019
G1 X162.32 Y88.876 E10.09093
G1 X160.124 Y88.212 E10.16877
G1 X160.01 Y88.247 E10.17281
G1 X159.706 Y88.353 E10.18374
G1 X157.816 Y88.871 E10.25023
G1 X157.831 Y89.191 E10.2611
G0 F6000 X157.796 Y89.387
G0 X157.23 Y88.885
G0 X155.345 Y88.861
G0 X152.069 Y88.046
G0 X152.065 Y87.551
G0 X154.364 Y86.482
G0 X154.371 Y86.019
G0 X150.699 Y84.536
G0 X150.089 Y84.497
;TYPE:WALL-INNER
G1 F1200 X150.089 Y84.396 E10.26452
G1 X150.091 Y84.293 E10.26802
G1 X150.162 Y84.323 E10.26843
G1 X150.338 Y84.398 E10.27243
G1 X150.161 Y84.468 E10.27398
G1 X150.089 Y84.497 E10.27434
G0 F6000 X151.065 Y84.402
G1 F1200 X151.225 Y84.331 E10.28028
G1 X151.297 Y84.299 E10.28295
G1 X151.298 Y84.398 E10.28391
G1 X151.3 Y84.498 E10.28567
G1 X151.228 Y84.469 E10.28609
G1 X151.065 Y84.402 E10.28753
G0 F6000 X154.371 Y86.019
G0 X154.364 Y86.482
G0 X151.267 Y87.803
G1 F1200 X151.715 Y87.671 E10.30337
