;FLAVOR:Marlin
;TIME:15317
;Filament used: 12.6725m
;Layer height: 0.2
;MINX:45.565
;MINY:43.89
;MINZ:0.2
;MAXX:172.256
;MAXY:178.093
;MAXZ:28.2
;Generated with Cura_SteamEngine 4.8.0
M82 ;absolute extrusion mode
M851 X6.0 Y1.0; // Define the offset
// M500;        // Store the settings

G28 ;Home
M140 S70 ;set bed temperature
M190 S70 ;wait for bed temperature

M104 S210 ;set hotend temperature
G29 ; Auto bed-level
G92 E0 ; Reset Extruder

G1 Z15.0 F3000 ;Move Z Axis up
M109 S210 ;wait for hotend temperature

G1 X20.1 Y200.0 Z0.3 F1500.0 E15 ; draw 1st line
G1 X20.4 Y200.0 Z0.3 F5000.0 ; move to side a little
G1 X20.4 Y20 Z0.3 F1500.0 E30 ; draw 2nd line
G92 E0 ; reset extruder
G1 Z1.0 F3000 ; move z up little to prevent scratching of surface

M117 Print Engaged;
G92 E0
G92 E0
G1 F2400 E-5
;LAYER_COUNT:140
;LAYER:0
M117 INDICATOR-Layer0
M107
G1 F300 Z0.4
;MESH:COVER_-_Arduino_Nano_V3_Case.stl
G0 F6000 X97.999 Y120.418 Z0.4
;TYPE:WALL-INNER
G1 F300 Z0.2
G1 F2400 E0
G1 F1200 X97.029 Y117.508 E0.10304
G1 X96.272 Y117.596 E0.12864
G1 X96.028 Y117.613 E0.13686
G1 X95.761 Y117.62 E0.14583
G1 X54.21 Y117.62 E1.54164
G1 X53.462 Y117.598 E1.56678
G1 X53.257 Y117.592 E1.57367
G1 X53.257 Y117.797 E1.57809
G1 X53.254 Y120.391 E1.66523
G1 X53.254 Y120.392 E1.66526
G1 X53.254 Y120.599 E1.67222
G1 X53.047 Y120.59 E1.67666
G1 X52.058 Y120.544 E1.70992
G1 X50.378 Y120.051 E1.76874
G1 X48.863 Y119.173 E1.82756
G1 X47.601 Y117.96 E1.88636
G1 X46.662 Y116.479 E1.94527
G1 X46.102 Y114.825 E2.00393
G1 X46.019 Y113.874 E2.036
G1 X46.001 Y113.658 E2.04328
G1 X46.217 Y113.658 E2.04786
G1 X46.218 Y113.658 E2.0479
G1 X48.755 Y113.658 E2.13312
G1 X48.756 Y113.658 E2.13316
G1 X48.977 Y113.658 E2.14058
G1 X48.954 Y113.438 E2.14525
G1 X48.876 Y112.726 E2.16932
G1 X48.856 Y112.28 E2.18431
G1 X48.856 Y55.856 E4.07975
G1 X48.862 Y55.604 E4.08822
G1 X48.877 Y55.385 E4.09559
G1 X48.958 Y54.65 E4.12043
G1 X46.041 Y53.678 E4.22372
G1 X46.285 Y52.514 E4.26367
G1 X46.979 Y51.019 E4.31904
G1 X47.996 Y49.722 E4.37441
G1 X49.285 Y48.684 E4.43
G1 X50.778 Y47.967 E4.48564
G1 X51.925 Y47.712 E4.52511
G1 X52.898 Y50.631 E4.62847
G1 X53.677 Y50.535 E4.65484
G1 X53.933 Y50.517 E4.66346
G1 X54.211 Y50.51 E4.6728
G1 X98.258 Y50.51 E6.15246
G1 X98.258 Y47.54 E6.25223
G1 X101.676 Y47.54 E6.36705
G1 X102.328 Y47.625 E6.38914
G1 X102.898 Y47.861 E6.40986
G1 X103.389 Y48.239 E6.43068
G1 X103.764 Y48.727 E6.45135
G1 X104 Y49.297 E6.47208
G1 X104.086 Y49.946 E6.49407
G1 X104.086 Y53.27 E6.60573
G1 X101.116 Y53.27 E6.7055
G1 X101.116 Y112.25 E8.6868
G1 X101.005 Y113.352 E8.72401
G1 X100.682 Y114.385 E8.76037
G1 X99.878 Y115.831 E8.81595
G1 X100.71 Y116.458 E8.85094
G1 X101.124 Y116.047 E8.87054
G1 X101.306 Y115.775 E8.88153
G1 X102.033 Y114.397 E8.93387
G1 X101.981 Y114.356 E8.9361
G1 X102.111 Y113.872 E8.95293
G1 X102.133 Y113.79 E8.95578
G1 X102.189 Y113.558 E8.9638
G1 X102.208 Y113.564
G1 X102.288 Y113.59 E8.96621
G1 X103.989 Y114.158 E9.02645
G1 X103.769 Y115.399 E9.06879
G1 X103.088 Y116.961 E9.12604
G1 X102.057 Y118.326 E9.1835
G1 X100.744 Y119.405 E9.24059
G1 X99.207 Y120.152 E9.298
G1 X97.999 Y120.418 E9.33955
G0 F6000 X97.734 Y120.886
;TYPE:WALL-OUTER
G1 F1200 X96.752 Y117.943 E9.44377
G1 X96.304 Y117.995 E9.45892
G1 X96.042 Y118.013 E9.46774
G1 X95.771 Y118.02 E9.47685
G1 X54.198 Y118.02 E10.8734
G1 X53.657 Y118.004 E10.89158
G1 X53.654 Y121.018 E10.99283
G1 X51.992 Y120.942 E11.04872
G1 X50.22 Y120.422 E11.11076
G1 X48.623 Y119.496 E11.17277
G1 X47.288 Y118.213 E11.23497
G1 X46.299 Y116.653 E11.29702
G1 X45.707 Y114.906 E11.35898
G1 X45.565 Y113.258 E11.41455
G1 X48.531 Y113.258 E11.51418
G1 X48.478 Y112.769 E11.53071
G1 X48.462 Y112.519 E11.53912
G1 X48.456 Y112.28 E11.54715
G1 X48.456 Y55.846 E13.44293
G1 X48.462 Y55.594 E13.45139
G1 X48.479 Y55.341 E13.45991
G1 X48.525 Y54.927 E13.47391
G1 X45.576 Y53.944 E13.57833
G1 X45.902 Y52.387 E13.63177
G1 X46.635 Y50.809 E13.69022
G1 X47.71 Y49.438 E13.74874
G1 X49.07 Y48.343 E13.8074
G1 X50.643 Y47.588 E13.86601
G1 X52.19 Y47.244 E13.91925
G1 X53.174 Y50.194 E14.02371
G1 X53.639 Y50.137 E14.03945
G1 X53.915 Y50.117 E14.04875
G1 X54.201 Y50.11 E14.05836
G1 X97.858 Y50.11 E15.52491
G1 X97.858 Y47.14 E15.62468
G1 X101.705 Y47.14 E15.75392
G1 X102.432 Y47.235 E15.77855
G1 X103.099 Y47.511 E15.80279
G1 X103.673 Y47.952 E15.82711
G1 X104.113 Y48.526 E15.85141
G1 X104.391 Y49.196 E15.87577
G1 X104.486 Y49.917 E15.9002
G1 X104.486 Y53.67 E16.02628
G1 X101.516 Y53.67 E16.12605
G1 X101.516 Y112.27 E18.09458
G1 X101.399 Y113.435 E18.13391
G1 X101.052 Y114.543 E18.17292
G1 X100.397 Y115.721 E18.2182
G1 X100.674 Y115.93 E18.22985
G1 X100.814 Y115.791 E18.23648
G1 X100.962 Y115.57 E18.24541
G1 X101.334 Y114.865 E18.27219
G1 X101.497 Y114.557 E18.2839
G1 X101.479 Y114.547 E18.28459
G1 X101.6 Y114.232 E18.29593
G1 X101.745 Y113.691 E18.31474
G1 X101.831 Y113.338 E18.32695
G1 X101.819 Y113.335 E18.32736
G1 X101.863 Y113.028 E18.33778
G1 X104.443 Y113.888 E18.42914
G1 X104.155 Y115.516 E18.48467
G1 X103.437 Y117.162 E18.545
G1 X102.347 Y118.605 E18.60575
G1 X100.96 Y119.745 E18.66606
G1 X99.339 Y120.533 E18.72661
G1 X97.734 Y120.886 E18.78181
G0 F6000 X97.851 Y120.683
G0 X98.317 Y120.235
G0 X98.258 Y119.961
;TYPE:SKIN
G1 F1200 X97.298 Y117.085 E18.88367
G1 X96.245 Y117.206 E18.91927
G1 X96.001 Y117.223 E18.92749
G1 X95.751 Y117.23 E18.93589
G1 X54.222 Y117.23 E20.33096
G1 X52.867 Y117.19 E20.3765
G1 X52.864 Y120.19 E20.47728
G1 X52.119 Y120.156 E20.50233
G1 X50.532 Y119.69 E20.55789
G1 X49.102 Y118.862 E20.6134
G1 X47.904 Y117.709 E20.66926
G1 X47.016 Y116.309 E20.72495
G1 X46.486 Y114.744 E20.78046
G1 X46.426 Y114.048 E20.80392
G1 X49.412 Y114.048 E20.90423
G1 X49.265 Y112.692 E20.95005
G1 X49.246 Y112.28 E20.96391
G1 X49.246 Y55.866 E22.85901
G1 X49.265 Y55.428 E22.87373
G1 X49.38 Y54.379 E22.90918
G1 X46.495 Y53.418 E23.01133
G1 X46.659 Y52.633 E23.03827
G1 X47.313 Y51.223 E23.09049
G1 X48.272 Y50.001 E23.14267
G1 X49.495 Y49.015 E23.19544
G1 X50.908 Y48.337 E23.24809
G1 X51.666 Y48.168 E23.27418
G1 X52.629 Y51.058 E23.37651
G1 X53.693 Y50.926 E23.41253
G1 X53.96 Y50.907 E23.42152
G1 X54.221 Y50.9 E23.43029
G1 X98.648 Y50.9 E24.92271
G1 X98.648 Y47.93 E25.02248
G1 X101.656 Y47.93 E25.12353
G1 X102.22 Y48.003 E25.14263
G1 X102.704 Y48.204 E25.16024
G1 X103.108 Y48.515 E25.17737
G1 X103.422 Y48.924 E25.19469
G1 X103.622 Y49.405 E25.21219
G1 X103.696 Y49.967 E25.23123
G1 X103.696 Y52.88 E25.32908
G1 X100.726 Y52.88 E25.42886
G1 X100.726 Y112.231 E27.42262
G1 X100.621 Y113.274 E27.45783
G1 X100.322 Y114.231 E27.49151
G1 X99.373 Y115.938 E27.55712
G1 X100.745 Y116.973 E27.61485
G1 X101.426 Y116.296 E27.64711
G1 X101.641 Y115.975 E27.66009
G1 X102.53 Y114.292 E27.72403
G1 X102.424 Y114.208 E27.72857
G1 X102.464 Y114.061 E27.73369
G1 X103.546 Y114.421 E27.772
G1 X103.393 Y115.287 E27.80154
G1 X102.751 Y116.759 E27.85549
G1 X101.774 Y118.053 E27.90995
G1 X100.529 Y119.075 E27.96406
G1 X99.079 Y119.78 E28.01822
G1 X98.258 Y119.961 E28.04647
G1 F2400 E23.04647
G0 F6000 X98.317 Y120.235
G0 X97.652 Y120.204
G0 X96.842 Y117.801
G0 X53.53 Y117.873
G0 X53.071 Y120.407
G0 X52.088 Y120.374
G0 X50.445 Y119.892
G0 X49.114 Y119.121
G0 X47.74 Y117.94
G0 X48.185 Y117.478
G1 F2400 E28.04647
G1 F1200 X49.322 Y118.573 E28.09949
G1 X49.885 Y118.899 E28.12135
G1 X47.7 Y116.713 E28.22518
G1 X47.342 Y116.15 E28.24759
G1 X47.158 Y115.606 E28.26688
G1 X51.003 Y119.451 E28.44955
G1 X51.804 Y119.687 E28.4776
G1 X46.868 Y114.75 E28.71212
G1 X46.84 Y114.667 E28.71506
G1 X46.817 Y114.407 E28.72383
G1 X47.09 Y114.407 E28.733
G1 X52.494 Y119.811 E28.98973
G1 X52.504 Y119.812 E28.99007
G1 X52.504 Y119.255 E29.00878
G1 X47.656 Y114.407 E29.23909
G1 X48.221 Y114.407 E29.25807
G1 X52.505 Y118.69 E29.46157
G1 X52.506 Y118.125 E29.48055
G1 X48.787 Y114.407 E29.6572
G1 X49.353 Y114.407 E29.67622
G1 X52.506 Y117.56 E29.82601
G1 X52.506 Y116.995 E29.84499
G1 X49.799 Y114.287 E29.97361
G1 X49.73 Y113.653 E29.99504
G1 X52.907 Y116.829 E30.14595
G1 X53.49 Y116.847 E30.16554
G1 X49.662 Y113.018 E30.34742
G1 X49.624 Y112.661 E30.35948
G1 X49.611 Y112.402 E30.36819
G1 X54.073 Y116.864 E30.58017
G1 X54.232 Y116.869 E30.58551
G1 X54.643 Y116.869 E30.59932
G1 X49.605 Y111.831 E30.83866
G1 X49.605 Y111.265 E30.85768
G1 X55.209 Y116.869 E31.12391
G1 X55.775 Y116.869 E31.14292
G1 X49.605 Y110.699 E31.43604
G1 X49.605 Y110.134 E31.45502
G1 X56.34 Y116.869 E31.77498
G1 X56.906 Y116.869 E31.794
G1 X49.605 Y109.568 E32.14085
G1 X49.605 Y109.002 E32.15986
G1 X57.472 Y116.869 E32.5336
G1 X58.037 Y116.869 E32.55258
G1 X49.605 Y108.436 E32.95319
G1 X49.605 Y107.871 E32.97217
G1 X58.603 Y116.869 E33.39964
G1 X59.169 Y116.869 E33.41865
G1 X49.605 Y107.305 E33.87301
G1 X49.605 Y106.739 E33.89202
G1 X59.734 Y116.869 E34.37325
G1 X60.3 Y116.869 E34.39226
G1 X49.605 Y106.174 E34.90035
G1 X49.605 Y105.608 E34.91937
G1 X60.866 Y116.869 E35.45435
G1 X61.432 Y116.869 E35.47336
G1 X49.605 Y105.042 E36.03523
G1 X49.605 Y104.477 E36.05421
G1 X61.997 Y116.869 E36.64292
G1 X62.563 Y116.869 E36.66193
G1 X49.605 Y103.911 E37.27753
G1 X49.605 Y103.345 E37.29654
G1 X63.129 Y116.869 E37.93903
G1 X63.694 Y116.869 E37.95801
G1 X49.605 Y102.78 E38.62734
G1 X49.605 Y102.214 E38.64636
G1 X64.26 Y116.869 E39.34258
G1 X64.826 Y116.869 E39.36159
G1 X49.605 Y101.648 E40.0847
G1 X49.605 Y101.083 E40.10368
G1 X65.391 Y116.869 E40.85363
G1 X65.957 Y116.869 E40.87264
G1 X49.605 Y100.517 E41.64948
G1 X49.605 Y99.951 E41.6685
G1 X66.523 Y116.869 E42.47222
G1 X67.088 Y116.869 E42.4912
G1 X49.605 Y99.385 E43.3218
G1 X49.605 Y98.82 E43.34078
G1 X67.654 Y116.869 E44.19824
G1 X68.22 Y116.869 E44.21725
G1 X49.605 Y98.254 E45.1016
G1 X49.605 Y97.688 E45.12061
G1 X68.785 Y116.869 E46.03183
G1 X69.351 Y116.869 E46.05084
G1 X49.605 Y97.123 E46.98892
G1 X49.605 Y96.557 E47.00793
G1 X69.917 Y116.869 E47.9729
G1 X70.482 Y116.869 E47.99188
G1 X49.605 Y95.991 E48.98371
G1 X49.605 Y95.426 E49.00269
G1 X71.048 Y116.869 E50.02139
G1 X71.614 Y116.869 E50.04041
G1 X49.605 Y94.86 E51.086
G1 X49.605 Y94.294 E51.10501
G1 X72.18 Y116.869 E52.17749
G1 X72.745 Y116.869 E52.19647
G1 X49.605 Y93.729 E53.29579
G1 X49.605 Y93.163 E53.3148
G1 X73.311 Y116.869 E54.44101
G1 X73.877 Y116.869 E54.46002
G1 X49.605 Y92.597 E55.61312
G1 X49.605 Y92.032 E55.6321
G1 X74.442 Y116.869 E56.81204
G1 X75.008 Y116.869 E56.83105
G1 X49.605 Y91.466 E58.03788
G1 X49.605 Y90.9 E58.05689
G1 X75.574 Y116.869 E59.29061
G1 X76.139 Y116.869 E59.30959
G1 X49.605 Y90.335 E60.57015
G1 X49.605 Y89.769 E60.58916
G1 X76.705 Y116.869 E61.87661
G1 X77.271 Y116.869 E61.89562
G1 X49.605 Y89.203 E63.20996
G1 X49.605 Y88.637 E63.22897
G1 X77.836 Y116.869 E64.57017
G1 X78.402 Y116.869 E64.58919
G1 X49.605 Y88.072 E65.95726
G1 X49.605 Y87.506 E65.97627
G1 X78.968 Y116.869 E67.37123
G1 X79.533 Y116.869 E67.39021
G1 X49.605 Y86.94 E68.81203
G1 X49.605 Y86.375 E68.83101
G1 X80.099 Y116.869 E70.2797
G1 X80.665 Y116.869 E70.29871
G1 X49.605 Y85.809 E71.77429
G1 X49.605 Y85.243 E71.7933
G1 X81.231 Y116.869 E73.29577
G1 X81.796 Y116.869 E73.31475
G1 X49.605 Y84.678 E74.84405
G1 X49.605 Y84.112 E74.86307
G1 X82.362 Y116.869 E76.41926
G1 X82.928 Y116.869 E76.43828
G1 X49.605 Y83.546 E78.02136
G1 X49.605 Y82.981 E78.04034
G1 X83.493 Y116.869 E79.65027
G1 X84.059 Y116.869 E79.66928
G1 X49.605 Y82.415 E81.3061
G1 X49.605 Y81.849 E81.32511
G1 X84.625 Y116.869 E82.98882
G1 X85.19 Y116.869 E83.0078
G1 X49.605 Y81.284 E84.69835
G1 X49.605 Y80.718 E84.71736
G1 X85.756 Y116.869 E86.4348
G1 X86.322 Y116.869 E86.45381
G1 X49.605 Y80.152 E88.19814
G1 X49.605 Y79.586 E88.21715
G1 X86.887 Y116.869 E89.98834
G1 X87.453 Y116.869 E90.00735
G1 X49.605 Y79.021 E91.80541
G1 X49.605 Y78.455 E91.82442
G1 X88.019 Y116.869 E93.64937
G1 X88.584 Y116.869 E93.66835
G1 X49.605 Y77.889 E95.52016
G1 X49.605 Y77.324 E95.53914
G1 X89.15 Y116.869 E97.41782
G1 X89.716 Y116.869 E97.43683
G1 X49.605 Y76.758 E99.3424
G1 X49.605 Y76.192 E99.36141
G1 X90.281 Y116.869 E101.29384
G1 X90.847 Y116.869 E101.31285
G1 X49.605 Y75.627 E103.27215
G1 X49.605 Y75.061 E103.29116
G1 X91.413 Y116.869 E105.27735
G1 X91.979 Y116.869 E105.29636
G1 X49.605 Y74.495 E107.30944
G1 X49.605 Y73.93 E107.32842
G1 X92.544 Y116.869 E109.36833
G1 X93.11 Y116.869 E109.38735
G1 X49.605 Y73.364 E111.45415
G1 X49.605 Y72.798 E111.47317
G1 X93.676 Y116.869 E113.56686
G1 X94.241 Y116.869 E113.58584
G1 X49.605 Y72.233 E115.70638
G1 X49.605 Y71.667 E115.72539
G1 X94.807 Y116.869 E117.87281
G1 X95.373 Y116.869 E117.89183
G1 X49.605 Y71.101 E120.06614
G1 X49.605 Y70.536 E120.08512
G1 X95.932 Y116.862 E122.28597
G1 X95.975 Y116.862 E122.28741
G1 X96.22 Y116.845 E122.29566
G1 X96.453 Y116.818 E122.30354
G1 X49.605 Y69.97 E124.52916
G1 X49.605 Y69.404 E124.54818
G1 X96.96 Y116.759 E126.79789
G1 X97.468 Y116.701 E126.81506
G1 X49.605 Y68.838 E129.0889
G1 X49.605 Y68.273 E129.10788
G1 X100.177 Y118.844 E131.5104
G1 X100.333 Y118.769 E131.51621
G1 X100.516 Y118.618 E131.52418
G1 X49.605 Y67.707 E133.94283
G1 X49.605 Y67.141 E133.96184
G1 X100.827 Y118.363 E136.39526
G1 X101.138 Y118.108 E136.40877
G1 X99.553 Y116.524 E136.48405
G1 X100.776 Y117.447 E136.53552
G1 X100.91 Y117.315 E136.54184
G1 X101.448 Y117.853 E136.5674
G1 X101.512 Y117.802 E136.57015
G1 X101.706 Y117.545 E136.58096
G1 X101.194 Y117.033 E136.60529
G1 X101.478 Y116.751 E136.61873
G1 X101.949 Y117.223 E136.64113
G1 X102.192 Y116.9 E136.65471
G1 X101.749 Y116.457 E136.67575
G1 X101.95 Y116.159 E136.68783
G1 X101.973 Y116.115 E136.6895
G1 X102.435 Y116.577 E136.71145
G1 X102.439 Y116.572 E136.71166
G1 X102.608 Y116.185 E136.72585
G1 X102.169 Y115.745 E136.74673
G1 X102.364 Y115.375 E136.76078
G1 X102.78 Y115.791 E136.78054
G1 X102.952 Y115.397 E136.79498
G1 X102.56 Y115.005 E136.8136
G1 X102.756 Y114.635 E136.82767
G1 X102.8 Y114.551 E136.83085
G1 X103.137 Y114.663 E136.84278
G0 F6000 X103.084 Y114.963
G1 F1200 X102.756 Y114.635 E136.85837
G0 F6000 X102.19 Y114.336
G0 X100.684 Y116.102
G0 X99.703 Y115.869
G0 X98.907 Y116.036
G1 F1200 X98.963 Y115.934 E136.86227
G1 X49.605 Y66.576 E139.20714
G1 X49.605 Y66.01 E139.22615
G1 X99.166 Y115.57 E141.58064
G1 X99.368 Y115.207 E141.59459
G1 X49.605 Y65.444 E143.9587
G1 X49.605 Y64.879 E143.97768
G1 X99.57 Y114.844 E146.35138
G1 X99.772 Y114.479 E146.3654
G1 X49.605 Y64.313 E148.74867
G1 X49.605 Y63.747 E148.76769
G1 X99.974 Y114.116 E151.16058
G1 X99.989 Y114.088 E151.16165
G1 X100.113 Y113.69 E151.17565
G1 X49.605 Y63.182 E153.57515
G1 X49.605 Y62.616 E153.59416
G1 X100.247 Y113.258 E156.00003
G1 X100.267 Y113.197 E156.00219
G1 X100.311 Y112.756 E156.01707
G1 X49.605 Y62.05 E158.42598
G1 X49.605 Y61.485 E158.44496
G1 X100.363 Y112.242 E160.85631
G1 X100.366 Y112.214 E160.85726
G1 X100.366 Y111.679 E160.87523
G1 X49.605 Y60.919 E163.28672
G1 X49.605 Y60.353 E163.30574
G1 X100.366 Y111.114 E165.71725
G1 X100.366 Y110.548 E165.73627
G1 X49.605 Y59.787 E168.14779
G1 X49.605 Y59.222 E168.16677
G1 X100.366 Y109.982 E170.57826
G1 X100.366 Y109.416 E170.59727
G1 X49.605 Y58.656 E173.00877
G1 X49.605 Y58.09 E173.02778
G1 X100.366 Y108.851 E175.4393
G1 X100.366 Y108.285 E175.45831
G1 X49.605 Y57.525 E177.86981
G1 X49.605 Y56.959 E177.88882
G1 X100.366 Y107.719 E180.30032
G1 X100.366 Y107.154 E180.3193
G1 X49.605 Y56.393 E182.73081
G1 X49.606 Y55.881 E182.74801
G1 X49.607 Y55.83 E182.74973
G1 X100.366 Y106.588 E185.16113
G1 X100.366 Y106.022 E185.18014
G1 X49.641 Y55.297 E187.58995
G1 X49.696 Y54.788 E187.60715
G1 X100.366 Y105.457 E190.01432
G1 X100.366 Y104.891 E190.03333
G1 X49.752 Y54.277 E192.43787
G1 X49.769 Y54.127 E192.44294
G0 F6000 X49.101 Y54.557
G0 X46.251 Y53.557
G0 X46.288 Y53.045
G0 X46.912 Y53.176
G1 F1200 X46.973 Y53.196 E192.44509
G1 X47.822 Y53.479 E192.47516
G1 X47.029 Y52.686 E192.51283
G1 X47.208 Y52.299 E192.52715
G1 X48.67 Y53.761 E192.59661
G1 X49.518 Y54.044 E192.62664
G1 X47.388 Y51.913 E192.72785
G1 X47.567 Y51.526 E192.74218
G1 X100.366 Y104.325 E195.25052
G1 X100.366 Y103.76 E195.2695
G1 X47.795 Y51.189 E197.767
G1 X48.044 Y50.872 E197.78054
G1 X100.366 Y103.194 E200.26622
G1 X100.366 Y102.628 E200.28523
G1 X48.293 Y50.556 E202.75906
