;FLAVOR:Marlin
;TIME:1248
;Filament used: 0.95835m
;Layer height: 0.2
;MINX:102.05
;MINY:73.337
;MINZ:0.2
;MAXX:136.65
;MAXY:102.779
;MAXZ:10
;Generated with Cura_SteamEngine 4.8.0
M82 ;absolute extrusion mode
M851 X6.0 Y1.0; // Define the offset
// M500;        // Store the settings

G28 ;Home
M140 S70 ;set bed temperature
M190 S70 ;wait for bed temperature

M104 S210 ;set hotend temperature
G29 ; Auto bed-level
G92 E0 ; Reset Extruder

G1 Z15.0 F3000 ;Move Z Axis up
M109 S210 ;wait for hotend temperature

G1 X20.1 Y200.0 Z0.3 F1500.0 E15 ; draw 1st line
G1 X20.4 Y200.0 Z0.3 F5000.0 ; move to side a little
G1 X20.4 Y20 Z0.3 F1500.0 E30 ; draw 2nd line
G92 E0 ; reset extruder
G1 Z1.0 F3000 ; move z up little to prevent scratching of surface

M117 Print Engaged;
G92 E0
G92 E0
G1 F2400 E-5
;LAYER_COUNT:50
;LAYER:0
M117 INDICATOR-Layer0
M107
G1 F300 Z0.4
;MESH:chopsticks_stander_mxu9560_35x10mm.stl
G0 F6000 X107.045 Y102.213 Z0.4
;TYPE:WALL-INNER
G1 F300 Z0.2
G1 F2400 E0
G1 F1200 X106.782 Y101.935 E0.01286
G1 X106.777 Y101.929 E0.01312
G1 X106.214 Y101.269 E0.04226
G1 X105.681 Y100.574 E0.07168
G1 X105.163 Y99.821 E0.10238
G1 X104.712 Y99.083 E0.13144
G1 X104.286 Y98.297 E0.16147
G1 X103.91 Y97.507 E0.19086
G1 X103.567 Y96.679 E0.22097
G1 X103.27 Y95.836 E0.25099
G1 X103.026 Y95.013 E0.27983
G1 X102.815 Y94.128 E0.31039
G1 X102.657 Y93.274 E0.33957
G1 X102.54 Y92.38 E0.36986
G1 X102.473 Y91.506 E0.3993
G1 X102.45 Y90.63 E0.42874
G1 X102.473 Y89.749 E0.45835
G1 X102.541 Y88.878 E0.48769
G1 X102.66 Y87.981 E0.51809
G1 X102.819 Y87.121 E0.54747
G1 X103.027 Y86.259 E0.57726
G1 X103.275 Y85.422 E0.60658
G1 X103.57 Y84.588 E0.6363
G1 X103.916 Y83.75 E0.66676
G1 X104.289 Y82.971 E0.69577
G1 X104.722 Y82.173 E0.72627
G1 X105.173 Y81.439 E0.75521
G1 X105.686 Y80.693 E0.78562
G1 X106.22 Y79.998 E0.81507
G1 X106.8 Y79.32 E0.84504
G1 X107.402 Y78.685 E0.87443
G1 X108.037 Y78.082 E0.90385
G1 X108.719 Y77.501 E0.93394
G1 X109.412 Y76.969 E0.96329
G1 X110.157 Y76.457 E0.99366
G1 X110.903 Y76.001 E1.02303
G1 X111.69 Y75.574 E1.05311
G1 X112.479 Y75.198 E1.08247
G1 X113.306 Y74.856 E1.11253
G1 X114.132 Y74.565 E1.14195
G1 X114.99 Y74.311 E1.17201
G1 X115.855 Y74.104 E1.20189
G1 X116.709 Y73.946 E1.23106
G1 X117.595 Y73.83 E1.26108
G1 X118.463 Y73.761 E1.29033
G1 X119.358 Y73.737 E1.32041
G1 X120.245 Y73.761 E1.35022
G1 X121.122 Y73.831 E1.37977
G1 X121.998 Y73.947 E1.40945
G1 X122.868 Y74.108 E1.43918
G1 X123.728 Y74.315 E1.46889
G1 X124.571 Y74.565 E1.49843
G1 X125.401 Y74.859 E1.52801
G1 X126.236 Y75.204 E1.55836
G1 X127.014 Y75.576 E1.58733
G1 X127.822 Y76.015 E1.61822
G1 X128.541 Y76.456 E1.64655
G1 X129.294 Y76.974 E1.67726
G1 X129.99 Y77.508 E1.70672
G1 X130.661 Y78.081 E1.73637
G1 X131.302 Y78.69 E1.76607
G1 X131.912 Y79.333 E1.79584
G1 X132.492 Y80.013 E1.82586
G1 X133.018 Y80.7 E1.85493
G1 X133.531 Y81.446 E1.88534
G1 X133.982 Y82.181 E1.91431
G1 X134.413 Y82.977 E1.94472
G1 X134.789 Y83.766 E1.97408
G1 X135.128 Y84.586 E2.00389
G1 X135.422 Y85.42 E2.03359
G1 X135.676 Y86.278 E2.06365
G1 X135.884 Y87.148 E2.0937
G1 X136.041 Y87.997 E2.12271
G1 X136.158 Y88.885 E2.15279
G1 X136.227 Y89.759 E2.18225
G1 X136.25 Y90.633 E2.21162
G1 X136.227 Y91.513 E2.24119
G1 X136.158 Y92.397 E2.27097
G1 X136.039 Y93.294 E2.30137
G1 X135.88 Y94.154 E2.33075
G1 X135.672 Y95.016 E2.36054
G1 X135.424 Y95.853 E2.38986
G1 X135.132 Y96.679 E2.41929
G1 X134.783 Y97.524 E2.45001
G1 X134.401 Y98.321 E2.4797
G1 X133.987 Y99.083 E2.50883
G1 X133.531 Y99.829 E2.5382
G1 X133.02 Y100.572 E2.56849
G1 X132.48 Y101.277 E2.59832
G1 X131.921 Y101.931 E2.62722
G1 X131.914 Y101.939 E2.62758
G1 X131.654 Y102.213 E2.64027
G1 X131.647 Y102.206 E2.6406
G1 X131.461 Y102.029 E2.64922
G1 X130.741 Y101.414 E2.68103
G1 X129.989 Y100.836 E2.71289
G1 X129.208 Y100.299 E2.74473
G1 X128.4 Y99.805 E2.77654
G1 X127.567 Y99.354 E2.80837
G1 X126.711 Y98.945 E2.84023
G1 X125.836 Y98.581 E2.87207
G1 X125.018 Y98.293 E2.9012
G1 X124.764 Y98.213 E2.91015
G1 X124.035 Y97.996 E2.9357
G1 X123.162 Y97.788 E2.96585
G1 X122.965 Y97.748 E2.9726
G1 X122.182 Y97.603 E2.99935
G1 X121.242 Y97.479 E3.0312
G1 X120.296 Y97.404 E3.06308
G1 X119.711 Y97.388 E3.08274
G1 X119.303 Y97.381 E3.09645
G1 X118.403 Y97.404 E3.12669
G1 X117.457 Y97.479 E3.15857
G1 X116.518 Y97.603 E3.19038
G1 X115.586 Y97.776 E3.22223
G1 X114.664 Y97.997 E3.25408
G1 X113.756 Y98.266 E3.28589
G1 X112.864 Y98.581 E3.31767
G1 X111.988 Y98.945 E3.34954
G1 X111.103 Y99.369 E3.3825
G1 X110.3 Y99.805 E3.4132
G1 X109.491 Y100.299 E3.44504
G1 X108.709 Y100.837 E3.47692
G1 X107.926 Y101.441 E3.51014
G1 X107.238 Y102.029 E3.54055
G1 X107.05 Y102.208 E3.54927
G1 X107.045 Y102.213 E3.5495
G0 F6000 X107.029 Y102.779
;TYPE:WALL-OUTER
G1 F1200 X106.491 Y102.21 E3.57581
G1 X105.903 Y101.521 E3.60624
G1 X105.351 Y100.802 E3.63669
G1 X104.833 Y100.048 E3.66742
G1 X104.365 Y99.283 E3.69754
G1 X103.934 Y98.488 E3.72792
G1 X103.54 Y97.661 E3.7587
G1 X103.197 Y96.832 E3.78883
G1 X102.893 Y95.969 E3.81957
G1 X102.638 Y95.11 E3.84967
G1 X102.426 Y94.221 E3.88037
G1 X102.261 Y93.33 E3.91081
G1 X102.143 Y92.432 E3.94124
G1 X102.074 Y91.537 E3.97139
G1 X102.05 Y90.633 E4.00177
G1 X102.074 Y89.718 E4.03252
G1 X102.144 Y88.825 E4.06261
G1 X102.263 Y87.928 E4.09301
G1 X102.43 Y87.027 E4.12379
G1 X102.638 Y86.165 E4.15358
G1 X102.898 Y85.289 E4.18427
G1 X103.2 Y84.435 E4.2147
G1 X103.55 Y83.588 E4.24549
G1 X103.937 Y82.78 E4.27558
G1 X104.37 Y81.982 E4.30608
G1 X104.843 Y81.212 E4.33644
G1 X105.356 Y80.466 E4.36685
G1 X105.909 Y79.746 E4.39735
G1 X106.496 Y79.06 E4.42768
G1 X107.119 Y78.402 E4.45812
G1 X107.778 Y77.777 E4.48863
G1 X108.466 Y77.191 E4.51899
G1 X109.185 Y76.639 E4.54944
G1 X109.93 Y76.127 E4.57981
G1 X110.712 Y75.649 E4.6106
G1 X111.499 Y75.222 E4.64067
G1 X112.326 Y74.828 E4.67145
G1 X113.153 Y74.486 E4.70151
G1 X114.018 Y74.181 E4.73232
G1 X114.876 Y73.927 E4.76238
G1 X115.767 Y73.714 E4.79315
G1 X116.657 Y73.549 E4.82356
G1 X117.551 Y73.432 E4.85385
G1 X118.439 Y73.361 E4.88378
G1 X119.359 Y73.337 E4.91469
G1 X120.269 Y73.361 E4.94527
G1 X121.166 Y73.433 E4.9755
G1 X122.05 Y73.55 E5.00546
G1 X122.96 Y73.718 E5.03654
G1 X123.822 Y73.926 E5.06633
G1 X124.698 Y74.186 E5.09703
G1 X125.554 Y74.489 E5.12753
G1 X126.398 Y74.838 E5.15821
G1 X127.199 Y75.221 E5.18804
G1 X128.013 Y75.663 E5.21915
G1 X128.768 Y76.126 E5.2489
G1 X129.521 Y76.644 E5.27961
G1 X130.248 Y77.202 E5.31039
G1 X130.921 Y77.777 E5.34013
G1 X131.585 Y78.407 E5.37088
G1 X132.216 Y79.073 E5.4017
G1 X132.796 Y79.753 E5.43172
G1 X133.348 Y80.473 E5.4622
G1 X133.861 Y81.219 E5.49261
G1 X134.329 Y81.982 E5.52268
G1 X134.765 Y82.787 E5.55343
G1 X135.159 Y83.613 E5.58417
G1 X135.498 Y84.433 E5.61398
G1 X135.806 Y85.306 E5.64508
G1 X136.06 Y86.164 E5.67514
G1 X136.273 Y87.055 E5.70591
G1 X136.438 Y87.945 E5.73632
G1 X136.555 Y88.833 E5.76641
G1 X136.626 Y89.727 E5.79654
G1 X136.65 Y90.641 E5.82725
G1 X136.626 Y91.544 E5.85759
G1 X136.555 Y92.45 E5.88812
G1 X136.436 Y93.347 E5.91852
G1 X136.269 Y94.248 E5.9493
G1 X136.061 Y95.11 E5.97909
G1 X135.801 Y95.986 E6.00979
G1 X135.502 Y96.832 E6.03993
G1 X135.149 Y97.686 E6.07097
G1 X134.762 Y98.494 E6.10107
G1 X134.328 Y99.292 E6.13158
G1 X133.861 Y100.056 E6.16166
G1 X133.348 Y100.802 E6.19207
G1 X132.791 Y101.529 E6.22284
G1 X132.204 Y102.215 E6.25317
G1 X131.669 Y102.778 E6.27926
G1 X131.193 Y102.326 E6.30131
G1 X130.489 Y101.725 E6.33241
G1 X129.754 Y101.16 E6.36355
G1 X128.99 Y100.635 E6.39469
G1 X128.2 Y100.152 E6.42579
G1 X127.385 Y99.71 E6.45694
G1 X126.548 Y99.31 E6.4881
G1 X125.693 Y98.955 E6.5192
G1 X124.892 Y98.673 E6.54773
G1 X124.647 Y98.596 E6.55636
G1 X123.931 Y98.383 E6.58145
G1 X123.076 Y98.179 E6.61098
G1 X122.889 Y98.141 E6.61739
G1 X122.119 Y97.998 E6.6437
G1 X121.2 Y97.877 E6.67483
G1 X120.275 Y97.804 E6.706
G1 X119.702 Y97.788 E6.72526
G1 X119.305 Y97.781 E6.7386
G1 X118.424 Y97.804 E6.7682
G1 X117.499 Y97.877 E6.79937
G1 X116.581 Y97.998 E6.83048
G1 X115.669 Y98.167 E6.86164
G1 X114.768 Y98.383 E6.89276
G1 X113.88 Y98.647 E6.92388
G1 X113.007 Y98.955 E6.95498
G1 X112.151 Y99.31 E6.98611
G1 X111.285 Y99.725 E7.01837
G1 X110.5 Y100.152 E7.04839
G1 X109.709 Y100.635 E7.07952
G1 X108.945 Y101.16 E7.11066
G1 X108.178 Y101.752 E7.14321
G1 X107.506 Y102.326 E7.1729
G1 X107.029 Y102.779 E7.195
G0 F6000 X107.038 Y102.397
G0 X106.85 Y101.845
G0 X107.064 Y101.664
;TYPE:SKIN
G1 F1200 X106.524 Y101.031 E7.22295
G1 X105.991 Y100.336 E7.25237
G1 X105.485 Y99.6 E7.28237
G1 X105.045 Y98.88 E7.31072
G1 X104.639 Y98.129 E7.3394
G1 X104.263 Y97.339 E7.36879
G1 X103.928 Y96.529 E7.39823
G1 X103.638 Y95.707 E7.42752
G1 X103.401 Y94.905 E7.45561
G1 X103.195 Y94.038 E7.48554
G1 X103.041 Y93.203 E7.51407
G1 X102.926 Y92.329 E7.54368
G1 X102.863 Y91.496 E7.57174
G1 X102.84 Y90.64 E7.60051
G1 X102.863 Y89.759 E7.63011
G1 X102.927 Y88.929 E7.65808
G1 X103.044 Y88.052 E7.6878
G1 X103.201 Y87.202 E7.71684
G1 X103.404 Y86.361 E7.7459
G1 X103.643 Y85.552 E7.77424
G1 X103.935 Y84.727 E7.80364
G1 X104.277 Y83.898 E7.83376
G1 X104.632 Y83.157 E7.86136
G1 X105.065 Y82.359 E7.89186
G1 X105.495 Y81.66 E7.91943
G1 X105.996 Y80.931 E7.94915
G1 X106.529 Y80.236 E7.97857
G1 X107.083 Y79.589 E8.00718
G1 X107.671 Y78.968 E8.03591
G1 X108.306 Y78.365 E8.06533
G1 X108.957 Y77.811 E8.09404
G1 X109.642 Y77.285 E8.12306
G1 X110.369 Y76.785 E8.1527
G1 X111.098 Y76.339 E8.1814
G1 X111.858 Y75.927 E8.21045
G1 X112.643 Y75.553 E8.23966
G1 X113.445 Y75.221 E8.26881
G1 X114.243 Y74.939 E8.29725
G1 X115.081 Y74.691 E8.3266
G1 X115.94 Y74.485 E8.35628
G1 X116.78 Y74.33 E8.38497
G1 X117.638 Y74.218 E8.41404
G1 X118.473 Y74.151 E8.44218
G1 X119.358 Y74.127 E8.47192
G1 X120.235 Y74.151 E8.50139
G1 X121.079 Y74.219 E8.52984
G1 X121.927 Y74.331 E8.55857
G1 X122.794 Y74.491 E8.58819
G1 X123.627 Y74.692 E8.61697
G1 X124.447 Y74.935 E8.6457
G1 X125.261 Y75.224 E8.67472
G1 X126.087 Y75.564 E8.70473
G1 X126.828 Y75.919 E8.73233
G1 X127.636 Y76.358 E8.76322
G1 X128.32 Y76.778 E8.79018
G1 X129.064 Y77.29 E8.82052
G1 X129.752 Y77.818 E8.84965
G1 X130.392 Y78.364 E8.87791
G1 X131.019 Y78.959 E8.90695
G1 X131.629 Y79.602 E8.93672
G1 X132.182 Y80.251 E8.96537
G1 X132.702 Y80.93 E8.9941
G1 X133.209 Y81.667 E9.02415
G1 X133.644 Y82.375 E9.05206
G1 X134.06 Y83.145 E9.08146
G1 X134.432 Y83.925 E9.11049
G1 X134.763 Y84.725 E9.13957
G1 X135.048 Y85.531 E9.16829
G1 X135.296 Y86.369 E9.19765
G1 X135.502 Y87.23 E9.22739
G1 X135.657 Y88.068 E9.25602
G1 X135.77 Y88.916 E9.28476
G1 X135.837 Y89.769 E9.3135
G1 X135.86 Y90.623 E9.3422
G1 X135.837 Y91.501 E9.3717
G1 X135.772 Y92.346 E9.40017
G1 X135.655 Y93.223 E9.42989
G1 X135.498 Y94.073 E9.45893
G1 X135.295 Y94.914 E9.48799
G1 X135.056 Y95.723 E9.51633
G1 X134.767 Y96.54 E9.54544
G1 X134.422 Y97.376 E9.57582
G1 X134.058 Y98.135 E9.6041
G1 X133.649 Y98.888 E9.63289
G1 X133.209 Y99.608 E9.66123
G1 X132.71 Y100.334 E9.69083
G1 X132.171 Y101.039 E9.72064
G1 X131.636 Y101.665 E9.7483
G1 X130.987 Y101.111 E9.77697
G1 X130.219 Y100.52 E9.80952
G1 X129.42 Y99.972 E9.84207
G1 X128.595 Y99.467 E9.87456
G1 X127.744 Y99.007 E9.90706
G1 X126.871 Y98.588 E9.93959
G1 X125.976 Y98.217 E9.97213
G1 X125.141 Y97.923 E10.00187
G1 X124.879 Y97.84 E10.0111
G1 X124.136 Y97.619 E10.03714
G1 X123.246 Y97.407 E10.06788
G1 X123.039 Y97.365 E10.07497
G1 X122.243 Y97.217 E10.10217
G1 X121.283 Y97.091 E10.1347
G1 X120.317 Y97.014 E10.16725
G1 X119.719 Y96.998 E10.18735
G1 X119.301 Y96.991 E10.20139
G1 X118.383 Y97.014 E10.23224
G1 X117.416 Y97.091 E10.26482
G1 X116.457 Y97.217 E10.29732
G1 X115.504 Y97.394 E10.32988
G1 X114.563 Y97.62 E10.36239
G1 X113.635 Y97.895 E10.3949
G1 X112.724 Y98.217 E10.42736
G1 X111.828 Y98.588 E10.45994
G1 X110.926 Y99.022 E10.49356
G1 X110.105 Y99.467 E10.52493
G1 X109.279 Y99.972 E10.55746
G1 X108.479 Y100.521 E10.59005
G1 X107.68 Y101.138 E10.62396
G1 X107.064 Y101.664 E10.65117
G0 F6000 X107.251 Y101.029
G1 F1200 X107.451 Y100.858 E10.66001
G1 X107.561 Y100.773 E10.66468
G1 X105.2 Y98.412 E10.77685
G1 X104.96 Y97.966 E10.79386
G1 X104.632 Y97.278 E10.81946
G1 X107.881 Y100.527 E10.97382
G1 X108.2 Y100.28 E10.98737
G1 X104.233 Y96.313 E11.17583
G1 X103.977 Y95.586 E11.20172
G1 X103.936 Y95.451 E11.20646
G1 X108.532 Y100.047 E11.4248
G1 X108.867 Y99.816 E11.43847
G1 X103.713 Y94.662 E11.68333
G1 X103.545 Y93.955 E11.70774
G1 X103.538 Y93.922 E11.70887
G1 X109.208 Y99.591 E11.97821
G1 X109.559 Y99.377 E11.99202
G1 X103.41 Y93.227 E12.28417
G1 X103.395 Y93.146 E12.28694
G0 F6000 X103.395 Y93.145
G1 F1200 X103.32 Y92.572 E12.30635
G1 X109.91 Y99.162 E12.61942
G1 X109.923 Y99.154 E12.61994
G1 X110.276 Y98.963 E12.63342
G1 X103.256 Y91.942 E12.96694
G1 X103.222 Y91.479 E12.98254
G1 X103.218 Y91.339 E12.98724
G1 X110.644 Y98.765 E13.34003
G1 X110.761 Y98.702 E13.3445
G1 X111.021 Y98.576 E13.3542
G1 X103.201 Y90.756 E13.72571
G1 X103.198 Y90.648 E13.72934
G1 X103.21 Y90.199 E13.74443
G1 X111.402 Y98.391 E14.13361
G1 X111.679 Y98.258 E14.14393
G1 X111.789 Y98.212 E14.14794
G1 X103.231 Y89.654 E14.5545
G1 X103.271 Y89.129 E14.57219
G1 X112.19 Y98.048 E14.99591
G1 X112.59 Y97.882 E15.01046
G1 X103.33 Y88.622 E15.45037
G1 X103.397 Y88.123 E15.46729
G1 X113.007 Y97.734 E15.92386
G1 X113.425 Y97.586 E15.93875
G1 X103.483 Y87.644 E16.41107
G1 X103.552 Y87.276 E16.42365
G0 F6000 X103.553 Y87.276
G1 F1200 X103.578 Y87.173 E16.42721
G1 X113.857 Y97.452 E16.91553
G1 X114.294 Y97.324 E16.93083
G1 X103.688 Y86.717 E17.43472
G1 X103.751 Y86.455 E17.44377
G0 F6000 X103.75 Y86.455
G1 F1200 X103.805 Y86.269 E17.45029
G1 X114.742 Y97.205 E17.96985
G1 X115.197 Y97.095 E17.98557
G1 X103.934 Y85.832 E18.52065
G1 X103.982 Y85.672 E18.52626
G1 X104.075 Y85.407 E18.53569
G1 X115.664 Y96.996 E19.08626
G1 X116.142 Y96.908 E19.10258
G1 X104.222 Y84.989 E19.66885
G1 X104.27 Y84.854 E19.67366
G1 X104.382 Y84.583 E19.68351
G1 X116.63 Y96.831 E20.26538
G1 X117.13 Y96.765 E20.28232
G1 X104.547 Y84.183 E20.88008
G1 X104.609 Y84.035 E20.88547
G1 X104.724 Y83.794 E20.89444
G1 X117.642 Y96.711 E21.50812
G1 X118.166 Y96.669 E21.52578
G1 X104.907 Y83.411 E22.15565
G1 X104.948 Y83.327 E22.15879
G1 X105.102 Y83.041 E22.16971
G1 X118.706 Y96.645 E22.816
G1 X119.259 Y96.631 E22.83458
G1 X105.301 Y82.674 E23.49766
G1 X105.38 Y82.529 E23.50321
G1 X105.51 Y82.317 E23.51156
G1 X119.834 Y96.64 E24.19203
G1 X120.335 Y96.654 E24.20887
G1 X120.419 Y96.66 E24.2117
G1 X105.726 Y81.967 E24.90972
G1 X105.79 Y81.863 E24.91383
G1 X105.952 Y81.627 E24.92344
G1 X121.034 Y96.709 E25.63995
G1 X121.32 Y96.732 E25.64959
G1 X121.668 Y96.778 E25.66138
G1 X106.182 Y81.292 E26.39708
G1 X106.285 Y81.144 E26.40313
G1 X106.421 Y80.965 E26.41068
G1 X122.32 Y96.864 E27.166
G1 X123.016 Y96.995 E27.18979
G1 X106.667 Y80.646 E27.96649
G1 X106.809 Y80.462 E27.9743
G1 X106.919 Y80.332 E27.98002
G1 X123.742 Y97.155 E28.77923
G1 X124.228 Y97.271 E28.79602
G1 X124.506 Y97.353 E28.80576
G1 X107.18 Y80.027 E29.62887
G1 X107.348 Y79.83 E29.63756
G1 X107.446 Y79.727 E29.64234
G1 X125.323 Y97.604 E30.49163
G1 X126.104 Y97.881 E30.51947
G1 X126.207 Y97.923 E30.5232
G1 X107.72 Y79.436 E31.40147
G1 X107.917 Y79.229 E31.41107
G1 X108.001 Y79.151 E31.41492
G1 X127.192 Y98.342 E32.32663
G1 X127.907 Y98.685 E32.35327
G1 X128.329 Y98.914 E32.3694
G1 X108.291 Y78.875 E33.32138
G1 X108.547 Y78.632 E33.33323
G1 X108.583 Y78.601 E33.33483
G1 X129.727 Y99.746 E34.33935
G1 X130.43 Y100.228 E34.36798
G1 X131.213 Y100.832 E34.4012
G1 X131.595 Y101.157 E34.41805
G1 X131.645 Y101.098 E34.42065
G1 X108.889 Y78.342 E35.50172
G1 X109.182 Y78.092 E35.51466
G1 X109.195 Y78.082 E35.51521
G1 X131.905 Y100.793 E36.59413
G1 X132.151 Y100.472 E36.60771
G1 X109.515 Y77.836 E37.68309
G1 X109.834 Y77.59 E37.69662
G1 X132.395 Y100.151 E38.76843
G1 X132.417 Y100.122 E38.76966
G1 X132.627 Y99.818 E38.78207
G1 X110.169 Y77.359 E39.84901
G1 X110.504 Y77.129 E39.86266
G1 X132.858 Y99.482 E40.92462
G1 X132.911 Y99.404 E40.92778
G1 X133.076 Y99.134 E40.93841
G1 X110.852 Y76.911 E41.99419
G1 X111.203 Y76.696 E42.00802
G1 X133.29 Y98.783 E43.05731
G1 X133.34 Y98.7 E43.06057
G1 X133.493 Y98.42 E43.07129
G1 X111.567 Y76.494 E44.11293
