;FLAVOR:Marlin
;TIME:4506
;Filament used: 2.64179m
;Layer height: 0.2
;MINX:92.682
;MINY:66.458
;MINZ:0.2
;MAXX:166.34
;MAXY:142.784
;MAXZ:32.4
;Generated with Cura_SteamEngine 4.8.0
M82 ;absolute extrusion mode
M851 X6.0 Y1.0; // Define the offset
// M500;        // Store the settings

G28 ;Home
M140 S80 ;set bed temperature
M190 S80 ;wait for bed temperature

M104 S240 ;set hotend temperature
G29 ; Auto bed-level
G92 E0 ; Reset Extruder

G1 Z15.0 F3000 ;Move Z Axis up
M109 S240 ;wait for hotend temperature

G1 X20.1 Y200.0 Z0.3 F1500.0 E15 ; draw 1st line
G1 X20.4 Y200.0 Z0.3 F5000.0 ; move to side a little
G1 X20.4 Y20 Z0.3 F1500.0 E30 ; draw 2nd line
G92 E0 ; reset extruder
G1 Z1.0 F3000 ; move z up little to prevent scratching of surface

M117 Print Engaged;
G92 E0
G92 E0
G1 F2400 E-5
;LAYER_COUNT:162
;LAYER:0
M117 INDICATOR-Layer0
M107
G1 F300 Z0.4
G0 F6000 X119.13 Y84.706 Z0.4
;TYPE:SKIRT
G1 F300 Z0.2
G1 F2400 E0
G1 F1200 X121.055 Y84.705 E0.06467
G1 X121.055 Y90.673 E0.26515
G1 X119.13 Y90.674 E0.32981
G1 X119.13 Y84.706 E0.53029
G0 F6000 X118.73 Y84.306
G1 F1200 X121.455 Y84.305 E0.62184
G1 X121.455 Y91.073 E0.84919
G1 X118.73 Y91.074 E0.94073
G1 X118.73 Y84.306 E1.16809
G0 F6000 X118.33 Y83.906
G1 F1200 X121.855 Y83.905 E1.2865
G1 X121.855 Y91.473 E1.54073
G1 X118.33 Y91.474 E1.65915
G1 X118.33 Y83.906 E1.91338
G0 F6000 X117.93 Y83.506
G1 F1200 X122.255 Y83.505 E2.05866
G1 X122.255 Y91.873 E2.33977
G1 X117.93 Y91.874 E2.48506
G1 X117.93 Y83.506 E2.76616
G0 F6000 X117.53 Y83.106
G1 F1200 X122.655 Y83.105 E2.93832
G1 X122.655 Y92.273 E3.2463
G1 X117.53 Y92.274 E3.41846
G1 X117.53 Y83.106 E3.72644
G0 F6000 X117.13 Y82.706
G1 F1200 X123.055 Y82.705 E3.92548
G1 X123.055 Y92.673 E4.26033
G1 X117.13 Y92.674 E4.45937
G1 X117.13 Y82.706 E4.79422
G0 F6000 X116.73 Y82.306
G1 F1200 X123.455 Y82.305 E5.02013
G1 X123.455 Y93.073 E5.38186
G1 X116.73 Y93.074 E5.60777
G1 X116.73 Y82.306 E5.9695
G0 F6000 X116.33 Y81.906
G1 F1200 X123.855 Y81.905 E6.22228
G1 X123.855 Y93.473 E6.61088
G1 X116.33 Y93.474 E6.86367
G1 X116.33 Y81.906 E7.25227
G0 F6000 X115.93 Y81.506
G1 F1200 X124.255 Y81.505 E7.53193
G1 X124.255 Y93.873 E7.9474
G1 X115.93 Y93.874 E8.22706
G1 X115.93 Y81.506 E8.64254
G0 F6000 X115.53 Y81.106
G1 F1200 X124.655 Y81.105 E8.94907
G1 X124.655 Y94.273 E9.39142
G1 X115.53 Y94.274 E9.69795
G1 X115.53 Y81.106 E10.1403
G1 F2400 E5.1403
G1 F300 Z0.4
G0 F6000 X119.53 Y85.106 Z0.4
;TYPE:SUPPORT
G1 F300 Z0.2
G1 F2400 E10.1403
G1 F1200 X120.655 Y85.105 E10.1781
G1 X120.655 Y90.273 E10.3517
G1 X119.53 Y90.274 E10.38949
G1 X119.53 Y85.106 E10.5631
G0 F6000 X119.61 Y85.328
G1 F1200 X120.575 Y85.328 E10.59552
G1 F2400 E5.59552
G1 F300 Z0.4
;MESH:cho_hin.stl
G0 F6000 X119.598 Y108.421 Z0.4
;TYPE:WALL-INNER
G1 F300 Z0.2
G1 F2400 E10.59552
G1 F1200 X120.093 Y108.451 E10.61218
G1 X120.117 Y108.45 E10.61298
G1 X120.586 Y108.422 E10.62877
G1 X121.075 Y108.333 E10.64546
G1 X121.543 Y108.186 E10.66194
G1 X121.678 Y108.126 E10.66691
G1 X121.996 Y107.982 E10.67863
G1 X122.419 Y107.726 E10.69524
G1 X122.806 Y107.423 E10.71175
G1 X123.157 Y107.072 E10.72843
G1 X123.46 Y106.686 E10.74491
G1 X123.717 Y106.26 E10.76163
G1 X123.86 Y105.944 E10.77328
G1 X123.919 Y105.811 E10.77816
G1 X124.068 Y105.337 E10.79486
G1 X124.156 Y104.853 E10.81138
G1 X124.186 Y104.358 E10.82804
G1 X124.156 Y103.861 E10.84477
G1 X124.069 Y103.38 E10.86119
G1 X123.919 Y102.904 E10.87795
G1 X123.859 Y102.771 E10.88285
G1 X123.718 Y102.458 E10.89439
G1 X123.462 Y102.033 E10.91105
G1 X123.156 Y101.642 E10.92773
G1 X122.809 Y101.295 E10.94422
G1 X122.417 Y100.989 E10.96092
G1 X121.994 Y100.734 E10.97751
G1 X121.679 Y100.591 E10.98913
G1 X121.544 Y100.531 E10.9941
G1 X121.073 Y100.383 E11.01068
G1 X120.585 Y100.294 E11.02735
G1 X120.118 Y100.267 E11.04306
G1 X120.093 Y100.265 E11.0439
G1 X119.599 Y100.294 E11.06053
G1 X119.298 Y100.349 E11.0708
G1 X119.112 Y100.383 E11.07716
G1 X118.641 Y100.531 E11.09374
G1 X118.532 Y100.58 E11.09776
G1 X118.191 Y100.734 E11.11033
G1 X117.824 Y100.955 E11.12472
G1 X117.769 Y100.988 E11.12687
G1 X117.378 Y101.294 E11.14355
G1 X117.206 Y101.466 E11.15172
G1 X117.028 Y101.644 E11.16018
G1 X116.725 Y102.032 E11.17672
G1 X116.695 Y102.082 E11.17867
G1 X116.468 Y102.457 E11.1934
G1 X116.316 Y102.793 E11.20579
G1 X116.266 Y102.904 E11.20988
G1 X116.118 Y103.379 E11.22659
G1 X116.086 Y103.557 E11.23267
G1 X116.03 Y103.86 E11.24302
G1 X115.999 Y104.358 E11.25978
G1 X116.029 Y104.855 E11.2765
G1 X116.084 Y105.154 E11.28672
G1 X116.119 Y105.339 E11.29304
G1 X116.266 Y105.812 E11.30968
G1 X116.314 Y105.92 E11.31365
G1 X116.467 Y106.259 E11.32615
G1 X116.692 Y106.631 E11.34075
G1 X116.725 Y106.685 E11.34288
G1 X117.028 Y107.072 E11.35939
G1 X117.203 Y107.246 E11.36768
G1 X117.379 Y107.422 E11.37604
G1 X117.769 Y107.728 E11.39269
G1 X117.817 Y107.757 E11.39457
G1 X118.189 Y107.981 E11.40916
G1 X118.534 Y108.136 E11.42187
G1 X118.643 Y108.186 E11.4259
G1 X119.115 Y108.333 E11.4425
G1 X119.296 Y108.365 E11.44868
G1 X119.598 Y108.421 E11.459
G0 F6000 X119.646 Y108.023
;TYPE:WALL-OUTER
G1 F1200 X120.093 Y108.05 E11.47404
G1 X120.538 Y108.024 E11.48901
G1 X120.979 Y107.944 E11.50407
G1 X121.4 Y107.812 E11.51889
G1 X121.809 Y107.627 E11.53397
G1 X122.191 Y107.396 E11.54897
G1 X122.54 Y107.123 E11.56385
G1 X122.857 Y106.806 E11.57891
G1 X123.13 Y106.458 E11.59377
G1 X123.362 Y106.074 E11.60884
G1 X123.545 Y105.668 E11.6238
G1 X123.679 Y105.241 E11.63883
G1 X123.758 Y104.805 E11.65372
G1 X123.785 Y104.358 E11.66876
G1 X123.758 Y103.909 E11.68387
G1 X123.68 Y103.476 E11.69865
G1 X123.545 Y103.047 E11.71376
G1 X123.363 Y102.644 E11.72861
G1 X123.132 Y102.26 E11.74367
G1 X122.856 Y101.908 E11.75869
G1 X122.543 Y101.595 E11.77356
G1 X122.19 Y101.319 E11.78862
G1 X121.808 Y101.089 E11.8036
G1 X121.401 Y100.905 E11.8186
G1 X120.977 Y100.772 E11.83353
G1 X120.537 Y100.692 E11.84855
G1 X120.093 Y100.666 E11.86349
G1 X119.647 Y100.692 E11.8785
G1 X119.208 Y100.772 E11.89349
G1 X118.784 Y100.905 E11.90842
G1 X118.377 Y101.089 E11.92342
G1 X117.996 Y101.318 E11.93835
G1 X117.644 Y101.594 E11.95338
G1 X117.328 Y101.91 E11.96839
G1 X117.055 Y102.259 E11.98328
G1 X116.823 Y102.643 E11.99835
G1 X116.641 Y103.046 E12.0132
G1 X116.507 Y103.475 E12.0283
G1 X116.428 Y103.908 E12.04309
G1 X116.4 Y104.358 E12.05823
G1 X116.427 Y104.806 E12.07331
G1 X116.508 Y105.243 E12.08824
G1 X116.641 Y105.67 E12.10326
G1 X116.822 Y106.073 E12.1181
G1 X117.055 Y106.457 E12.13319
G1 X117.328 Y106.806 E12.14808
G1 X117.645 Y107.122 E12.16311
G1 X117.997 Y107.398 E12.17814
G1 X118.375 Y107.626 E12.19297
G1 X118.785 Y107.811 E12.20808
G1 X119.211 Y107.944 E12.22307
G1 X119.646 Y108.023 E12.23792
G0 F6000 X119.594 Y108.459
G0 X124.255 Y108.521
;TYPE:WALL-INNER
G1 F1200 X121.691 Y108.521 E12.32405
G1 X121.543 Y108.521 E12.32864
G1 X121.075 Y108.521 E12.33888
G1 X120.586 Y108.521 E12.34474
G1 X120.122 Y108.521 E12.348
G1 X120.087 Y108.518 E12.34835
G1 X119.594 Y108.469 E12.35074
G1 X119.283 Y108.438 E12.35241
G1 X119.1 Y108.383 E12.35354
G1 X118.627 Y108.239 E12.35577
G1 X118.505 Y108.202 E12.35656
G1 X118.168 Y108.023 E12.3585
G1 X117.782 Y107.817 E12.36066
G1 X117.731 Y107.775 E12.36118
G1 X117.348 Y107.461 E12.36345
G1 X117.151 Y107.299 E12.36487
G1 X116.991 Y107.103 E12.36627
G1 X116.679 Y106.723 E12.3685
G1 X116.633 Y106.667 E12.36902
G1 X116.427 Y106.281 E12.37116
G1 X116.25 Y105.95 E12.37303
G1 X116.214 Y105.829 E12.37382
G1 X116.07 Y105.355 E12.37604
G1 X116.013 Y105.168 E12.37715
G1 X115.983 Y104.86 E12.37877
G1 X115.933 Y104.358 E12.38124
G1 X115.982 Y103.856 E12.38373
G1 X116.013 Y103.544 E12.38541
G1 X116.067 Y103.364 E12.3865
G1 X116.213 Y102.888 E12.38875
G1 X116.251 Y102.764 E12.38955
G1 X116.427 Y102.436 E12.39145
G1 X116.635 Y102.047 E12.39362
G1 X116.678 Y101.994 E12.39414
G1 X116.99 Y101.614 E12.39636
G1 X117.154 Y101.415 E12.39773
G1 X117.347 Y101.257 E12.39908
G1 X117.731 Y100.943 E12.40133
G1 X117.788 Y100.896 E12.40186
G1 X118.168 Y100.693 E12.40399
G1 X118.502 Y100.515 E12.40593
G1 X118.624 Y100.478 E12.40672
G1 X119.097 Y100.335 E12.40892
G1 X119.284 Y100.278 E12.41002
G1 X119.594 Y100.248 E12.41165
G1 X120.086 Y100.2 E12.41399
G1 X120.122 Y100.196 E12.41435
G1 X120.585 Y100.196 E12.41759
G1 X121.073 Y100.196 E12.42341
G1 X121.544 Y100.196 E12.43369
G1 X121.692 Y100.196 E12.43827
G1 X124.255 Y100.196 E12.52437
G1 X124.255 Y102.758 E12.61044
G1 X124.255 Y102.904 E12.61496
G1 X124.255 Y103.38 E12.62536
G1 X124.255 Y103.861 E12.6311
G1 X124.255 Y104.358 E12.63461
G1 X124.255 Y104.853 E12.63811
G1 X124.255 Y105.337 E12.64391
G1 X124.255 Y105.811 E12.65428
G1 X124.255 Y105.957 E12.65881
G1 X124.255 Y108.521 E12.74494
G0 F6000 X124.655 Y108.921
;TYPE:WALL-OUTER
G1 F1200 X120.103 Y108.921 E12.89785
G1 X119.203 Y108.832 E12.92823
G1 X118.352 Y108.574 E12.95811
G1 X117.559 Y108.151 E12.9883
G1 X116.867 Y107.583 E13.01837
G1 X116.299 Y106.891 E13.04845
G1 X115.878 Y106.103 E13.07846
G1 X115.619 Y105.248 E13.10847
G1 X115.531 Y104.358 E13.13851
G1 X115.619 Y103.463 E13.16872
G1 X115.879 Y102.61 E13.19868
G1 X116.3 Y101.825 E13.2286
G1 X116.87 Y101.13 E13.2588
G1 X117.564 Y100.562 E13.28892
G1 X118.35 Y100.143 E13.31884
G1 X119.204 Y99.884 E13.34882
G1 X120.103 Y99.796 E13.37917
G1 X124.655 Y99.796 E13.53208
G1 X124.655 Y108.921 E13.83862
G0 F6000 X124.385 Y108.651
G0 X124.145 Y108.131
G0 X123.865 Y108.131
;TYPE:SKIN
G1 F1200 X122.503 Y108.131 E13.88437
G1 X122.641 Y108.048 E13.88978
G1 X123.065 Y107.715 E13.90789
G1 X123.449 Y107.331 E13.92613
G1 X123.782 Y106.908 E13.94422
G1 X123.865 Y106.77 E13.94963
G1 X123.865 Y108.131 E13.99535
G0 F6000 X124.145 Y108.131
G0 X122.371 Y108.342
G0 X122.339 Y108.197
;TYPE:SKIN
G1 F1200 X122.192 Y108.05 E13.99884
G0 F6000 X122.01 Y108.151
G1 F1200 X122.219 Y108.36 E14.0038
G0 F6000 X121.937 Y108.36
G1 F1200 X121.815 Y108.238 E14.0067
G0 F6000 X121.836 Y108.217
G0 X123.731 Y106.492
G0 X123.755 Y106.502
G1 F1200 X123.832 Y106.578 E14.00852
G0 F6000 X123.861 Y106.325
G1 F1200 X124.094 Y106.558 E14.01405
G0 F6000 X124.094 Y106.275
G1 F1200 X123.949 Y106.13 E14.0175
G0 F6000 X124.094 Y105.992
G1 F1200 X124.056 Y105.955 E14.01839
G0 F6000 X124.061 Y105.945
G0 X123.932 Y102.189
G0 X123.865 Y101.946
;TYPE:SKIN
G1 F1200 X123.784 Y101.811 E14.02368
G1 X123.448 Y101.383 E14.04195
G1 X123.068 Y101.002 E14.06003
G1 X122.639 Y100.667 E14.07832
G1 X122.504 Y100.586 E14.0836
G1 X123.865 Y100.586 E14.12932
G1 X123.865 Y101.946 E14.17501
G0 F6000 X123.897 Y102.118
;TYPE:SKIN
G1 F1200 X124.094 Y102.315 E14.17969
G0 F6000 X123.828 Y102.332
G1 F1200 X124.094 Y102.598 E14.18601
G0 F6000 X124.109 Y102.582
G0 X122.281 Y100.699
G0 X122.331 Y100.552
G1 F1200 X122.135 Y100.356 E14.19066
G0 F6000 X122.118 Y100.622
G1 F1200 X121.852 Y100.356 E14.19698
G0 F6000 X121.971 Y100.474
G1 F1200 X122.261 Y100.482 E14.20727
G0 F6000 X122.25 Y100.561
G0 X123.752 Y102.169
G0 X123.966 Y102.187
G1 F1200 X123.975 Y102.479 E14.21755
G0 F6000 X124.109 Y102.582
G0 X123.96 Y106.141
G0 X124.019 Y106.2
G1 F1200 X123.976 Y106.44 E14.22382
G1 X123.837 Y106.583 E14.22894
G0 F6000 X123.731 Y106.492
G0 X122.202 Y108.06
G0 X122.308 Y108.166
G1 F1200 X122.113 Y108.253 E14.2344
G1 X121.874 Y108.297 E14.2406
G0 F6000 X122.088 Y108.158
G1 F2400 E9.2406
G1 F300 Z0.4
G0 F6000 X121.975 Y107.951 Z0.4
G0 X119.599 Y75.085
;TYPE:WALL-INNER
G1 F300 Z0.2
G1 F2400 E14.2406
G1 F1200 X120.093 Y75.114 E14.25723
G1 X120.116 Y75.113 E14.258
G1 X120.586 Y75.085 E14.27382
G1 X121.074 Y74.994 E14.29049
G1 X121.544 Y74.848 E14.30703
G1 X121.679 Y74.788 E14.31199
G1 X121.994 Y74.645 E14.32361
G1 X122.416 Y74.391 E14.34016
G1 X122.808 Y74.085 E14.35686
G1 X123.158 Y73.734 E14.37351
G1 X123.461 Y73.347 E14.39002
G1 X123.717 Y72.921 E14.40672
G1 X123.859 Y72.606 E14.41833
G1 X123.918 Y72.475 E14.42315
G1 X124.068 Y72 E14.43989
G1 X124.155 Y71.518 E14.45634
G1 X124.186 Y71.021 E14.47307
G1 X124.156 Y70.526 E14.48973
G1 X124.067 Y70.039 E14.50636
G1 X123.919 Y69.567 E14.52297
G1 X123.86 Y69.434 E14.52786
G1 X123.718 Y69.12 E14.53944
G1 X123.461 Y68.693 E14.55618
G1 X123.158 Y68.307 E14.57266
G1 X122.807 Y67.956 E14.58934
G1 X122.415 Y67.65 E14.60605
G1 X121.996 Y67.397 E14.62249
G1 X121.678 Y67.253 E14.63421
G1 X121.543 Y67.193 E14.63918
G1 X121.071 Y67.046 E14.65578
G1 X120.587 Y66.957 E14.67232
G1 X120.118 Y66.929 E14.6881
G1 X120.093 Y66.927 E14.68894
G1 X119.599 Y66.956 E14.70556
G1 X119.297 Y67.012 E14.71588
G1 X119.111 Y67.047 E14.72224
G1 X118.644 Y67.192 E14.73867
G1 X118.538 Y67.239 E14.74256
G1 X118.19 Y67.396 E14.75539
G1 X117.823 Y67.617 E14.76978
G1 X117.766 Y67.652 E14.77203
G1 X117.38 Y67.955 E14.78851
G1 X117.201 Y68.134 E14.79701
G1 X117.029 Y68.307 E14.80521
G1 X116.726 Y68.692 E14.82167
G1 X116.694 Y68.745 E14.82375
G1 X116.468 Y69.119 E14.83843
G1 X116.317 Y69.455 E14.8508
G1 X116.265 Y69.569 E14.85501
G1 X116.118 Y70.041 E14.87162
G1 X116.086 Y70.22 E14.87772
G1 X116.029 Y70.526 E14.88818
G1 X115.999 Y71.021 E14.90484
G1 X116.029 Y71.517 E14.92153
G1 X116.084 Y71.819 E14.93184
G1 X116.117 Y71.999 E14.93799
G1 X116.265 Y72.474 E14.95471
G1 X116.315 Y72.584 E14.95876
G1 X116.467 Y72.92 E14.97115
G1 X116.692 Y73.295 E14.98584
G1 X116.724 Y73.347 E14.98789
G1 X117.03 Y73.736 E15.00452
G1 X117.203 Y73.91 E15.01276
G1 X117.377 Y74.084 E15.02103
G1 X117.767 Y74.39 E15.03768
G1 X117.818 Y74.421 E15.03969
G1 X118.191 Y74.646 E15.05432
G1 X118.529 Y74.797 E15.06676
G1 X118.644 Y74.848 E15.07098
G1 X119.112 Y74.994 E15.08745
G1 X119.295 Y75.028 E15.0937
G1 X119.599 Y75.085 E15.10409
G0 F6000 X119.648 Y74.687
;TYPE:WALL-OUTER
G1 F1200 X120.093 Y74.713 E15.11907
G1 X120.538 Y74.687 E15.13404
G1 X120.978 Y74.605 E15.14908
G1 X121.402 Y74.473 E15.16399
G1 X121.808 Y74.29 E15.17895
G1 X122.189 Y74.061 E15.19389
G1 X122.542 Y73.785 E15.20894
G1 X122.858 Y73.468 E15.22398
G1 X123.131 Y73.12 E15.23883
G1 X123.362 Y72.735 E15.25392
G1 X123.544 Y72.332 E15.26877
G1 X123.679 Y71.904 E15.28385
G1 X123.757 Y71.47 E15.29866
G1 X123.785 Y71.021 E15.31377
G1 X123.758 Y70.574 E15.32882
G1 X123.678 Y70.135 E15.34381
G1 X123.544 Y69.709 E15.35881
G1 X123.363 Y69.306 E15.37365
G1 X123.131 Y68.921 E15.38875
G1 X122.858 Y68.573 E15.40361
G1 X122.541 Y68.256 E15.41867
G1 X122.188 Y67.98 E15.43372
G1 X121.81 Y67.752 E15.44855
G1 X121.401 Y67.568 E15.46361
G1 X120.975 Y67.435 E15.47861
G1 X120.539 Y67.355 E15.4935
G1 X120.093 Y67.328 E15.50851
G1 X119.647 Y67.354 E15.52351
G1 X119.207 Y67.436 E15.53855
G1 X118.786 Y67.567 E15.55336
G1 X118.376 Y67.751 E15.56846
G1 X117.994 Y67.982 E15.58345
G1 X117.646 Y68.255 E15.59831
G1 X117.329 Y68.573 E15.6134
G1 X117.056 Y68.92 E15.62823
G1 X116.823 Y69.305 E15.64334
G1 X116.64 Y69.711 E15.6583
G1 X116.507 Y70.137 E15.6733
G1 X116.427 Y70.574 E15.68822
G1 X116.4 Y71.021 E15.70326
G1 X116.427 Y71.469 E15.71834
G1 X116.506 Y71.903 E15.73316
G1 X116.64 Y72.331 E15.74823
G1 X116.822 Y72.734 E15.76308
G1 X117.054 Y73.119 E15.77818
G1 X117.33 Y73.47 E15.79318
G1 X117.643 Y73.784 E15.80807
G1 X117.995 Y74.06 E15.8231
G1 X118.377 Y74.291 E15.83809
G1 X118.785 Y74.473 E15.8531
G1 X119.209 Y74.605 E15.86802
G1 X119.648 Y74.687 E15.88302
G0 F6000 X119.595 Y75.123
G0 X124.255 Y75.183
;TYPE:WALL-INNER
G1 F1200 X121.692 Y75.183 E15.96912
G1 X121.544 Y75.183 E15.9737
G1 X121.074 Y75.183 E15.98401
G1 X120.586 Y75.183 E15.98986
G1 X120.121 Y75.183 E15.99308
G1 X120.087 Y75.18 E15.99343
G1 X119.595 Y75.132 E15.99577
G1 X119.282 Y75.101 E15.99744
G1 X119.097 Y75.045 E15.99859
G1 X118.628 Y74.903 E16.00089
G1 X118.5 Y74.864 E16.00172
G1 X118.169 Y74.688 E16.00367
G1 X117.783 Y74.481 E16.00585
G1 X117.729 Y74.437 E16.00636
G1 X117.347 Y74.122 E16.00861
G1 X117.152 Y73.962 E16.00998
G1 X116.992 Y73.768 E16.01135
G1 X116.678 Y73.386 E16.01363
G1 X116.633 Y73.331 E16.01417
G1 X116.426 Y72.943 E16.01635
G1 X116.25 Y72.614 E16.01827
G1 X116.213 Y72.49 E16.01908
G1 X116.068 Y72.014 E16.02127
G1 X116.013 Y71.833 E16.02235
G1 X115.983 Y71.522 E16.02399
G1 X115.933 Y71.021 E16.02645
G1 X115.982 Y70.522 E16.0289
G1 X116.013 Y70.207 E16.03059
G1 X116.067 Y70.026 E16.03168
G1 X116.211 Y69.553 E16.03397
